/* XPM */
static char *team_logo_xpm[] = {
/* columns rows colors chars-per-pixel */
"256 64 31 1 ",
"0 c #e0e0e0",
"1 c #808080",
"2 c #c0c0c0",
"3 c #202020",
"4 c #a0a080",
"5 c #606060",
"6 c #402020",
"7 c #a0a0a0",
"8 c #c0c0e0",
"9 c #a0c0c0",
"a c #a0a0c0",
"b c #404040",
"c c #80a0c0",
"d c #8080a0",
"e c #8080c0",
"f c #c0e0e0",
"g c #6060a0",
"h c #808060",
"i c #404020",
"j c #6080a0",
"k c #806060",
"l c #4060a0",
"m c #606040",
"n c #406080",
"o c #204080",
"p c #404080",
"q c #e0e0c0",
"r c #c0a0a0",
"s c #604040",
"t c #a08080",
"u c #c0c0a0",
/* pixels */
"0000000000000000000000000000000000000000000000000000000000000000000000000000000000000000000000000000001120000000000000000000000000000000000000000000000000000000000000000000000000000000000000000000000000000000000000000000000000000000000000000000000000000000",
"0000000000000000000000000000000000000000000000000000000000000000000000000000000000000000000000000000023334000000000000000000000000000000000000000000000000000000000000000000000000000000000000000000000000000000000000000000000000000000000000000000000000000000",
"0000000000000000000000000000000000000000000000000000000000000000000000000000000000000000000000000000005333200000000000000000000000000000000000000000000000000000000000000000000000000000000000000000000000000000000000000000000000000000000000000000000000000000",
"0000000000000000000000000000000000000000000000000000000000000000000000000000000000000000000000000000002633700000000000000000000000000000000000000000000000000000000000000000000000000000000000000000000000000000000000000000000000000000000000000000000000000000",
"0000000000000000000000000000000000889aaaa92800000000000000000000000000000000000000000000000000000000000b33100000000000000000000000000000000000000000000000000000000000000000000000000000000000000000000000000000000000000000000000000000000000000000000000000000",
"00000000000000000000000000000089cdddcccccceddea8f000000000000000000000000000000000000000000000000000000b33200000000000000000000000000000000000000000000000000000000000000000000000000000000000000000000000000000000000000000000000000000000000000000000000000000",
"0000000000000000000000000008acec98000000000002aeda20000000000000000000000000000000000000000000000000000b3b000000000000000000000000000000000000000000000000000000000000000000000000000000000000000000000000000000000000000000000000000000000000000000000000000000",
"00000000000000000000000008cec80000000000000000008aee900000000000000000000000000000000000000000000000000b31000000000000000000000000000000000000000000000000000000000000000000000000000000000000000000000000000000000000000000000000000000000000000000000000000000",
"000000000000000000000008adaf000000880000000000000009ec2000000000000000000000000000000000000000000000000b31000000000000000000000000000000000000000000000000000000000000000000000000000000000000000000000000000000000000000000000000000000000000000000000000000000",
"0000000000000000000000aecf00000088ae800000000ca0000009ec80000000000000000000000000000000000000000000000b31000000000000000000000000000000000000000000000000000000000000000000000000000000000000000000000000000000000000000000000000000000000000000000000000000000",
"00000000000000000000fce800000000acaaa00000002gc00000000ae2000000000000000000000000000000000000000000002631000000000000000000000000000000000000000000000000000000000000000000000000000000000000000000000000000000000000000000000000000000000000000000000000000000",
"00000000000000000008ee20000000009aff800000008898000000008ea000000000000000000000000000000000000000000023370000000000000000000000000000000000000000000000000000000000000000000000000000000000000000000000000000000000000000000000021120000002227h5170000000000000",
"0000000000000000002d90a80000000000000000000000000000000888ea000000000000000000000000000000000000000000733200000000000000000000000000000000000000000000000000000000000000000000000000000000000000000000000000000000000000000000000263b200002bib333335000000000000",
"000000000000000008d200cea00000000089aaaaaaa88000000008agja8ca00000000000000000000000000000000000000000733777000000000000000000000000000000000000000000000000000000000000000000000000000000000000000000000000000000000000000000000053310000233333333b200000000000",
"00000000000000008d20009jj9900002aa9229999999aa9f000008egge00ea0000000000000000000000000000000000000000k333335200000000000000000000000000000000000000000000000000000000000000000000000000000000000000000000000000000000000000000255b33620000715h1b331000000000000",
"0000000000000000j90000ajg90002aa89cjgllllgjea22aaf0008dcja000d900000000000000000000000000000000000001b333333350000000000000000000000000000000000000000000000000000000000000000000000000000000000000000000000000000000000000000013333337000072222i3m0000000000000",
"000000000000000ca000000aja08aa8ajnoooooooooople92aa00ajaf0000fj800000000000000000000000000000000021b33333b15b100000000000000000000000000000000000000000000000000000000000000000000000000000000000000000000000000000000000027q00rb3333b2000r336573370000000000000",
"00000000000000ac0000000088aa8agoooooooooooooooone89a82880000009j00000000000000000000000000000275b333333332002000000000000000000000000000000000000000000000000000000000000000000000000000000000000000000000000000000000000013b70025333s00000t51213500000000000000",
"00000000000008d8000000000aa8joooooooooooooooooooola8a8000000000ca0000000000000000000000000002b3333333333b00000000000000000000000000000000000000000000000000000000000000000000000000000000000000000000000000000000000000000733b202b333350000000733700000000000000",
"0000000000000c9000000000aa2looooooooooopoooooooooopc8a8000000000j8000000000000000000000000007333333333335000000000000000000000000000000000000000000000000000000000000000000000000000000000000000000000000000000000000000002b331013317b3200001b335000000000000000",
"0000000000002c000000000aa2nooooooooooop9loooooooooooe8af00000000ae000000000000000000000000000133333337m310000000000000000000000000000000000000000000000000000000000000000000000000000000000000000000000000000000000000000001331u63100737002b333b2000000000000000",
"000000000000e9000000002a8nooooooooooooc09ooooooooooooe9a000000000d800000000000000000000000000073333b20m37000000002000000000000000000000000000000000000000000000000000000000000000000000000000000000000000000000000000000000433t53100023500r3b3310000000000000000",
"000000000002e000000000c8loooooogpooool000jooooogpoooooaa900000000ae0000000000000000000000000000k335000b320000000535200000000000000000000000000000000000000000000000000000000000000000000000000000000000000000000000002m5r00733b350000236000273620000000000000000",
"00000000000ca00000000c8jooooooj0apoooa0008poood0cooooon9a800000000jf00000000000000000000000000002200003b00220000133h0000000000000000000000000000000000000000000000000000000000000000000000000000000000000000000000000733i0023335271r0733q002b3500000000000000000",
"00000000008e802a90002aaooooool800apoj00000cood000goooooj9a00028880ca00000000000000000000000000000000023b21670000263b20000000000000000000000000000000000000000000000000000000000000000000000000000000000000000000000000b33700s3507333453b00053b207172000000000000",
"00000000009c009dj800c8looooooa0000cl8000000gj00002poooooaa8002dc008d000000000000000000000000000000000233ib70000073337000000000000000000000000000000000000000000000000000000000000000000000000000000000000000000000000073310013502b3333350013357b333b700000000000",
"0000000000aa08jc8008aaooooood000000800000008000000cooooojaa000a0000d80000000000000000000000000000002253352000000533b200000000000000000000000000000000002200000000000000000000000000000000000000000000000000000000000000b3u0073b207b33337273333335733310000000000",
"0000000000c808aa800c2goooool8000000000000000000000fgoooooaa00000000ca000000000000000000000000000275bi33500000002333t00000000000000000000000000000000002iit0000000000000000000000000000000000000000000000000000000000000k37007337002i3335b333333100b33b0000000000",
"0000000008cffa9af00c9ooooopa000000000000000000000009pooooea8008ff00ac000000000000002720000000021b36m113k000000013350000000000000000000000000000000000073337000000000000000000000000000000000000000000000000000000000000735002b3t001333333336517024b3330000000000",
"0000000002c08a8a808acoooooe0000000000000000000000000eoooogaa00cca808e00000000000002b3b70000007b33120023k0000002i3i2000000000000000000000000000000000002633s0000000000000000000000000000000002000000000000000000000000000b370053b1b333333335200q1b333330000000000",
"000000000ac00aca00a2joooog00000000000000000000000000fgooop9a00290008d00000000000007333320002533370000735000000t33k0000000000000000000000000000000000000b333200000000000000000000000000000025b52000000000000000000000000013b71b3333365t1bb10007b333333b0000000000",
"000000000aa00ac200a8looop80000000000000000000000000009poooac0000000fd000000000000025333k002b3331007k1s3b000000b33u0000000000000000000000000000000000000m3337000000000000000000000000000000133350000000000000000000000241533333333b1200022002133333333s0000000000",
"000000000aa00cda00c8poooc00000000000000000000000000000eoooacf009a900df00000000000000133502b333527533333i000007335000000000000000000000000000000000000005336225514772000000000000000000000026333u0000000000000000110005333333336b12000000007b333333333b0000000000",
"000000000aa08cc900c2oooj0000000000000000000000000000000gooca80088f00d800000000000000233h0b3333r26333333320000b3370000000000000000000000272000000000000013352i333333b70000000000000000000000133340000000000000000b3200163333357220000000001ib111b6b11b10000000000",
"000000000ca0008200c9ool800000000000000000000000000000009poca80000000e800000000000000053b2s36bt00533333360000133500000000000000000000002b36s70000000000013352b3333333500000000000000000000007333700000000000000026370002r7133r00000000000051200022200200000000000",
"000000000aa08acc00c2ooa000000000000000000000000000000000eoca80faaa00e8000000000000000r3372u220002151753b000263b200000000000000000000002b333310000000000133k021b33b7220000000000000000000001b33320000000000000007331000000053700000000000000000000000000000000000",
"000000000aa0088a00c2pd0000000000000000000000000000000000flac008eec80df0000000000000000b35000000000000b3312053370000000000000000000000007b333370000000001331000277200000000000000000000007533333s2000000000000001331000000025200000271120000000000000000000000000",
"000000000aa002aa00a2df000008aeddeca800000000000000000000092c0002820fd0000000000000000013i20000000000533335133k000000000000000000000000002b33310000000001331000000000000000000000000027753333333370000000000000053310000000021177kb3333b2000000000000000000000000",
"0000000009c009e8009900008dloooooooople800000000000000000008c00000008d00000000000000000r334000000007s333351335000000000000000000000000000073337000000000433100000000000000000000000025333333333bt000000000000000b331000000001333333333335000000000000000000000000",
"0000000008c008ja008c008jpoopgjeccdjloooj900000000000000088aa009ca802e000000000000000000b35000000213333352b33200000000000000000000000000002i334000000000733100000000000000000000000005333333333200000000000000073337000000001333333333bb7000000000000000000000000",
"0000000008c808aa800c0coooj98088888888cloola8000000000fajpcc800ccaf0aa00000000000000000013b000002b333b3355333520000000000000000000000000002b33100000000073370000000000000000000000000733333333b000000000000000073310000000002533333335200000000000000000000000000",
"0000000000c208ejc00a9god809dlpooooolc809goooljdccedjlooopaa000ej900e90000000000000000002332000733331qs333mts331200000000000000000000000000533100000000073370000000000000000000000000021b333337222000000000000025100000000000071533333bu0000000000000000000000000",
"0000000000aa09aaa008c99fcloooopnnpoooogaf2dloooooooooole89900008800d000000000000000000005370253333k00533100013331000000000000000000000002133350000000007337000000000000000000000000000007b33b7b33b12000000000000000000000000002b33i333b2000000000000000000000000",
"00000000002c0f2f0000c89loopja8ffff8aeloolc8f8aedjjdca8880c800800009e0000000000000000000073hrb33335001335000002b33b1q000000000000000000013333310000000007337211111720000000000000000000001333725333361000000000000000000000000053br2b3332000000000000000000000000",
"00000000000e808acc008caope808cdjjjda809loopgea988889ajlda900aaa800e9000000000000000000000b333333500533310000000k333b7000000000000000002b33333k000000000733113333333b57200000000000000007333500021b333s20000000000000000000000251000s3350000000000000000000000000",
"00000000000aa00aja000aaa8fcloooooooooj9eoglooooooooooolaa000ajca08j000000000000000000000013333310q533331000000007b333t00000000000000000133333b520000000t331233333333333570000000000000053332000002533367000000000000000000000000000b3370215557000000000000000000",
"000000000008e8089f9f00c82poooljdeedgnoopoe09ejllpplljd9a800008c80aa000000000000000000000026b77202b33333500000000001b33b5117200000000000021i333362000000233k07b3b1271b3333100000000000053337000000007b33b20000000000000000000000000053315333333b70000000000000000",
"000000000000ca008aea008c9lpd98f888888adnooja88888888f099000af0000d00000000000000000000000016r002b33b713b0000000000025333333b70000000000000b3333b20000000b3m00020000025333i000000000025333700000000002533m00000000000000000000000002m3333336b33331000000000000000",
"0000000000008e80aca98008a228adlpooold988joooolgjdjjja9a0008ac000aa000000000000000000000000u3b02b33100733200000000000013333333700000000000133333r000000007350000000000053331000000002b33b70000000000000b33t00000000000000000000021b33333b172013333520000000000000",
"0000000000000aa00a80d2002a8coooooooooolaeogeglppooncaa00009ad808j00000000000000000000000002b35b337000t3320000000000002b333333s0000000000133333700000000007200000000000q533b00000007b35t20000000000000043350000000000000000222753333333100000073333k0000000000000",
"00000000000000d2000aaa8002aadnooooooooooooj88899aaaaa0008800000d90000000000000000000000000013336700001330000000000000073333b570000000075333331000000000000000000000000001b500000025b7000000000000000002b3500000000000000073633333s7s3600000000133350000000000000",
"000000000000002ef0820ac8008aaajnooooooooooopgjc802a90000fa8000ac000000000000000000000000000t33370000013b000000000000000711700000000001333333100000000000000000000000000002000000002000000000000000000007350000000000000002b3333350053b00000000075b70000000000000",
"000000000000000ac0009ea280009aaadgpooooooooolgeaaa800082002009d0000000000000000000000000001333700000013b0000000000000000000000000000053333370000000000000000000000000000000000000000000000000000000000007200000000000000002715b100053b00000000000200000000000000",
"0000000000000000cc00aa88e900089aaacddjjjjjdcaaaa80000acda0008d800000000000000000000000000133b7000000053b000000000000000000000000000002711k70000000000000000000000000000000000000000000000000000000000000000000000000000000000000000b3b00000000000000000000000000",
"00000000000000000ea008fcec98000f89aaaaaaaaaa9280000f0aeca008d2000000000000000000000000025335200000000536000000000000000000000000000000000000000000000000000000000000000000000000000000000000000000000000000000000000000000000000002i3b00000000000000000000000000",
"000000000000000000ec0008acad800000088888888000000f898028002d200000000000000000000000002b3s7000000000013300000000000000000000000000000000000000000000000000000000000000000000000000000000000000000000000000000000000000000000000000733500000000000000000000000000",
"0000000000000000000cc00089cdc800000000000000000002a8a0000ad20000000000000000000000000qb6100000001120013320000000000000000000000000000000000000000000000000000000000000000000000000000000000000000000000000000000000000000000000000133500000000000000000000000000",
"00000000000000000000ad80008ce00000800f008009200000ac9000cd800000000000000000000000000072000000007bi1073320000000000000000000000000000000000000000000000000000000000000000000000000000000000000000000000000000000000000000000000000s33100000000000000000000000000",
"0000000000000000000009ja0008800008c02c98acfad0000008008dcf0000000000000000000000000000000000000002b3bb3320000000000000000000000000000000000000000000000000000000000000000000000000000000000000000000000000000000000000000000000002i33700000000000000000000000000",
"00000000000000000000008cd200000008a09da0aa09e80000000cd900000000000000000000000000000000000000000073333320000000000000000000000000000000000000000000000000000000000000000000000000000000000000000000000000000000000000000000t5122133b000000000000000000000000000",
"0000000000000000000000008dd200000f809d8fja0aa00000fcda0000000000000000000000000000000000000000000001333b00000000000000000000000000000000000000000000000000000000000000000000000000000000000000000000000000000000000000000000r53363331000000000000000000000000000",
"000000000000000000000000009dda8000000000800000009eja000000000000000000000000000000000000000000000002b33320000000000000000000000000000000000000000000000000000000000000000000000000000000000000000000000000000000000000000000001333337000000000000000000000000000",
"00000000000000000000000000008addc9f0000000008addc900000000000000000000000000000000000000000000000000433340000000000000000000000000000000000000000000000000000000000000000000000000000000000000000000000000000000000000000000000533332000000000000000000000000000",
"00000000000000000000000000000008aejjjddddjjjdc200000000000000000000000000000000000000000000000000000075b700000000000000000000000000000000000000000000000000000000000000000000000000000000000000000000000000000000000000000000002kb310000000000000000000000000000",
};
