/* XPM */
static char *Brasao_provisorio_iran_open[] = {
/* columns rows colors chars-per-pixel */
"256 64 6 1 ",
"  c #011749",
". c #5B6770",
"X c #D2A713",
"o c #E5B313",
"O c #FCE702",
"+ c gray95",
/* pixels */
"                                                                                                                                                                                                                                                                ",
"                                                                                                                                                                                                                                                                ",
"                                                                                                                                                                                                                                                                ",
"                                                                                                                                                                                                                                                                ",
"                     O            O                                                                                                                                                                                                                             ",
"                   .oOO         .oOO                                                                                                                                                                                                                            ",
"                 oOOOOOOOO    oOOOOOOOO                                                                                                                                                                                                                         ",
"                ..oOOOOOO    ..oOOOOOO                                                                                                                                                                                                                          ",
"                 ..oOOOO      ..oOOOO                                                                                                                                                                                                                           ",
"                  .OOOOO       .OOOOO                                                                                                                                                                                                                           ",
"                  OOo.oOO      OOo.oOO                                                                                                                                                                                                                          ",
"                 .Oo ..oO     .Oo ..oO                                                                                                                                                                                                                          ",
"                 ..   ..      ..   ..                                                                                                                                                                                                                           ",
"                                                                                                                                                                                                                                                                ",
"                                                                                                                                                                                                                                                                ",
"                                                                                                                                                                                                                                                                ",
"          ooOOOOOOOOOOOOOOOOOO    +++++++++++++              OOOOOOOOOOOOOOOOOOOOOOOOOOO                                                                                                                                                                        ",
"         ..ooOOOOOOOOOOOOOOOOOO  ..+++++++++++++            ooOOOOOOOOOOOOOOOOOOOOOOOOOOO                                                                          OOOOO                                                                                        ",
"          ..ooOOOOOOOOOOOOOOOOOO  ..++++++++++++     ++++  ..ooOOOOOOOOOOOOOOOOOOOOOOOOOOO  .+++++++++++++++++++++++++++++++++++++++++++++++++++++++++++++++++++  XOOOOO .+++++++++++++++++++++++++++++++++++++++++++++++++++++++++++++++++++++++++             ",
"           ..ooOOOOOOOOOOOOOOOOOO  ..+++++++++++     +++++  ..ooOOOOOOOOOOOOOOOOOOOOOOOOOOO  .++++++++++++++++++++++++++++++++++++++++++++++++++++++++++++++++++ .XOOOOO .++++++++++++++++++++++++++++++++++++++++++++++++++++++++++++++++++++++++++            ",
"         +  ..ooOOOOOOOOOOOOOOOOOO  ..++++++++++     ++++++  ..oooooooooooOOOOoooooooooooo    .+++++++++++++++++++++++++++++++++++++++++++++++++++++++++++++++++ .XOOOOO .+++++++++++++++++++++++++++++++++++++++++++++++++++++++++++++++++++++++++++           ",
"        .++  ..ooOOOOOOOOOOOOOOOOOO  ..+++++++++     +++      ...........oOOOO...........                                                                        .XOOOOO                                                                         +++++          ",
"        .+++  ..ooooooOOOOOOOooooooo  ..++++++++     +++                .oOOOO                                                                                   .XOOOOO                                                                           ++++         ",
"        .++++  ......oOOOOOOO......    ..+++++++     +++                .oOOOO                                                                                   .XOOOOO                                                                            ++++        ",
"        .+++++      .oOOOOOOO           .+++++++     +++                .oOOOO                                                                                   .XOOOOO                                                                             ++++       ",
"        .++++++     .oOOOOOOO           .+++++++     +++                .oOOOO     OO                                                                            .XOOOOO                                                                             ++++       ",
"        .+++++++    .oOOOOOOO           .+++++++     +++                .oOOOO    XOOO                                                                           .XOOOOO                                                                              +++       ",
"        .+++++++    .ooOOOOOO           .+++++++     +++                .oOOOO   .XOOO                                                                           .XOOOOO                                                                              +++       ",
"        .+++++++    ..ooOOOOO           .+++++++     +++                .oOOOO   .XOOO                                             OOO                           .XOOOOO                                                                              +++       ",
"        .+++++++     ..ooOOOO           .+++++++     +++                .oOOOO   .XOOO                                            XOOO                           .XOOOOO                                                                              +++       ",
"        .+++++++      ..ooOOO           .+++++++     +++                .oOOOO   .XOOO                                           .XOOO                           .XOOOOO                                                                              +++       ",
"        .+++++++       ..ooOO           .+++++++     +++                .oOOOO   .XOOO                                           .XOOO                           .XOOOOO                                                                              +++       ",
"        .+++++++     o  ..ooO           .+++++++     +++                .oOOOO   .XOOO                                           .XOOO                           .XOOOOO                                                                              +++       ",
"        .+++++++    .oO  ..oo           .+++++++     +++                .oOOOO   .XOOOOOOOOOO    OOO     OOO    OOOOOOOO         .XOOO                           .XOOOOO                                                                              +++       ",
"        .++++++++   .oOO  ..o           ++++++++     +++                .oOOOO   .XOOOOOOOOOOO  XOOO    XOOO   OOOOOOOOOO     OOOOOOOO     OOOOOOO     OOO    OO .XOOOOO              OOOOOOO       OOOOOO       OOOOOOO     OOO    OOO     OOOOOOO   +++       ",
"        ..+++++++   .oOOO  .           .+++++++      +++                .oOOOO   .XOOOOOOOOOOO .XOOO    XOOO  XOOOOOOOOOO    OOOOOOOOO    OOOOOOOOO   XOOOOOOOOO .XOOOOO             OOOOOOOOO     OOOOOOOO     OOOOOOOOO   XOOO   XOOO    OOOOOOOOO  +++       ",
"         .+++++++   .oOOOO             .+++++++      +++                .oOOOO   .XOOOXXXXXOOO .XOOO    XOOO .XOOOXXXXOOO   OOOOOOOOOO   OOOXXXXXOOO .XOOOOOOOOO .XOOOOO            OOOXXXXXOOO   XXXXXXXOOO   OOOOOOOOOOO .XOOO  .XOOO   OOOXXXXXOOO +++       ",
"         .++++++++  .oOOOOO            ++++++++      +++                .oOOOO   .XOOO....XOOO .XOOO    XOOO .XOOO...XOOO  XOOOXXXXOOO  XOOO....XOOO .XOOOOOOXX  .XOOOOO           XOOO....XOOO  .......XOOO  XOOOXXXXXOOO .XOOO  .XOOO  XOOO....XOOO +++       ",
"         ..+++++++  .oOOOOOO          .+++++++       +++                .oOOOO   .XOOO   .XOOO .XOOO    XOOO .XOOO  .XOOO .XOOO...XOOO .XOOOOOOOOOOO .XOOOXX..   .XOOOOO          .XOOOOOOOOOOO   OOOOOOOOOO .XOOO....XOOO .XOOO  .XOOO .XOOOOOOOOOOO +++       ",
"          .++++++++ .oOOOOOOO         ++++++++       +++                .oOOOO   .XOOO   .XOOO .XOOO    XOOO .XOOO  .XOOO .XOOO  .XOOO .XOOOOOOOOOO  .XOOO.      .XOOOOO          .XOOOOOOOOOO   OOOOOOOOOOO .XOOO   .XOOO .XOOO  .XOOO .XOOOOOOOOOO  +++       ",
"          .++++++++ .oOOOOOOO        .++++++++       +++                .oOOOO   .XOOO   .XOOO .XOOO    XOOO .XOOO  .XOOO .XOOO  .XOOO .XOOOXXXXXX   .XOOO       .XOOOOOOOOOOOOOO .XOOOXXXXXX   XOOOXXXXXOOO .XOOO   .XOOO .XOOO  .XOOO .XOOOXXXXXX   +++       ",
"          ..++++++++.oOOOOOOO        ++++++++        +++                .oOOOO   .XOOO   .XOOO .XOOOOOOOOOOO .XOOO  .XOOO .XOOOOOOOOOO .XOOO.....    .XOOO       .XOOOOOOOOOOOOOO .XOOO.....   .XOOO....XOOO .XOOO   .XOOO .XOOOOOOOOOO .XOOO.....    +++       ",
"           .++++++++.oOOOOOOO       .++++++++         +++               .oOOOO   .XOOO   .XOOO .XOOOOOOOOOO  .XOOO  .XOOO .XXOOOOOOOO  .XXOOOOOOOOO  .XOOO       .XOOOOOOOOOOOOOO .XXOOOOOOOO  .XXOOOOOOOOO  .XXOOOOOOOOO  .XOOOOOOOOOO .XXOOOOOOOOO  +++       ",
"           .++++++++.oOOOOOOOOOOOO  ..+++++++         +++               .oOOOO   .XOOO   .XOOO .XXOOOOOOOOO  .XOOO  .XOOO ..XXOOOOOO   ..XXOOOOOOO   .XOOO       .XOOOOOOOOOOOOOO ..XXOOOOOO   ..XXOOOOOOO   ..XXOOOOOOOO  .XXOOOOOOOO  ..XXOOOOOOO   +++       ",
"           ..+++++++.oOOOOOOOOOOOOO  ..+++++          +++               .oooo    .XXX    .XXX  ..XXXXXXXXX   .XXX   .XXX   ..XXXXXX     ..XXXXXXX    .XXX        .XXXXXXXXXXXXXX   ..XXXXXX     ..XXXXXXX     ..XXXXOOOO   ..XXXXXXXX    ..XXXXXXX    +++       ",
"            .+++++++.oOOOOOOOOOOOOOO  ..++++          ++++              ....     ...     ...    .........    ...    ...     ......       .......     ...         ..............     ......       .......       ....XXOOOO   ........      .......     +++       ",
"            ..++++++.oOOOOOOOOOOOOOOO  ..++            ++++                                                                                                                                                       ..XXOOOO                            +++       ",
"             .++++++.oOOOOOOOOOOOOOOOO  ..             +++++                                                                                                                                                       ..XXOOO                            +++       ",
"             ..+++++.oOOOOOOOOOOOOOOOOO                 +++++                                                                                                                                                  OOO  ..XOOO                            +++       ",
"              ..++++.oOOOOOOOOOOOOOOOOOO                 ++++++++++++++++++++++++++++++++++++++++++++++++++++++++++++++++++++++++++++++++++++++++++++++++++++++++++++++++++++++++++++++++++++++++++++++++++   XOOO   .XOOO  .++++++++++++++++++++++++++++       ",
"               ..+++.oooooooooooooooooooo                  ++++++++++++++++++++++++++++++++++++++++++++++++++++++++++++++++++++++++++++++++++++++++++++++++++++++++++++++++++++++++++++++++++++++++++++++++  .XOOOOOOOOOOO  .++++++++++++++++++++++++++++       ",
"                ..++....................                     ++++++++++++++++++++++++++++++++++++++++++++++++++++++++++++++++++++++++++++++++++++++++++++++++++++++++++++++++++++++++++++++++++++++++++++++  .XXOOOOOOOOO  .+++++++++++++++++++++++++++++       ",
"                 ..++++++++++++++++++++                                                                                                                                                                      ..XXOOOOOOO                                        ",
"                  ..++++++++++++++++++                                                                                                                                                                        ..XXXXXXX                                         ",
"                   ...++++++++++++++                                                                                                                                                                           .......                                          ",
"                     ...++++++++++                                                                                                                                                                                                                              ",
"                       ...++++++                                                                                                                                                                                                                                ",
"                         ......                                                                                                                                                                                                                                 ",
"                                                                                                                                                                                                                                                                ",
"                                                                                                                                                                                                                                                                ",
"                                                                                                                                                                                                                                                                ",
"                                                                                                                                                                                                                                                                ",
"                                                                                                                                                                                                                                                                ",
"                                                                                                                                                                                                                                                                "
};
