/* XPM */
static const char * team_logo_xpm[] = {
"256 64 65 1",
" 	c None",
".	c #0267AC",
"+	c #0A66A8",
"@	c #156AAC",
"#	c #1F6AA8",
"$	c #286CA8",
"%	c #2E71AD",
"&	c #3873AB",
"*	c #477CB0",
"=	c #4B7DAD",
"-	c #5483B3",
";	c #5B87B2",
">	c #668DB6",
",	c #6E94BA",
"'	c #7094B6",
")	c #779ABB",
"!	c #809FBC",
"~	c #C5A027",
"{	c #C6A12D",
"]	c #C4A22E",
"^	c #C5A338",
"/	c #8CA9C3",
"(	c #C5A43F",
"_	c #C6A644",
":	c #C7A84C",
"<	c #C9AC56",
"[	c #CAAF60",
"}	c #9CB5CA",
"|	c #CCB267",
"1	c #CCB56E",
"2	c #CFB977",
"3	c #A8BFD1",
"4	c #D0BB7F",
"5	c #D4C28C",
"6	c #D6C488",
"7	c #B5C9D8",
"8	c #D7C796",
"9	c #DBCDA2",
"0	c #DDCE9D",
"a	c #C2D4DF",
"b	c #E0D4AA",
"c	c #E1D6B1",
"d	c #CBDCE5",
"e	c #E4DBBD",
"f	c #E7DDB3",
"g	c #E7DEBB",
"h	c #D2E1E9",
"i	c #EAE3C6",
"j	c #DAE7EC",
"k	c #EDE7CD",
"l	c #EFE9CC",
"m	c #E0EBF0",
"n	c #EFEAD4",
"o	c #F3EFDB",
"p	c #E8F1F4",
"q	c #F6F3E3",
"r	c #EFF5F7",
"s	c #F9F7EB",
"t	c #FBFAF2",
"u	c #F7FBFB",
"v	c #FDFDF8",
"w	c #FCFFFE",
"x	c #FDFFFC",
"y	c #FFFFFD",
"z	c #FFFFFF",
"                                                                                                                                                                                                                                                                ",
"                                                                                                                                                                                                                                                                ",
"                                zzzzz                                                                                                                                                                                 zyyzzyyvyxyzvxxyyyzz                      ",
"                               zzzruzz                                                                                                                                                                              zyzyxvsoignvxqcgnqvxyzzy                    ",
"                               zwp/3uz                                                                                                                                                                             zyxysk92[_^4st5^(<29iqvxyzz                  ",
"                               zzd%,rzz                                                                                zzz                                                                                       zzzyqg4_]^:<^_kn<][<^](2cqvzyy                 ",
"                          zzzzzzzd%>pzzzzzzz                                     zzzzzzzzzzzzzzzzzz       zzzzz      zzzwzz               zzzzzzz           zzzzz zzzyz   zzzzzz                                zzzti4(]<4cko6]60^2nng6<]^2gqxzz                ",
"                         zzzzwwwwd%>pwzwwwzyz                                   zyzzzzzzzzzzzzzzzzyz     zzwwwyz zzzzzurprzzzzz          zzzrrruzz         zzzzzzyzwrrzy yzwuzzzz                              yyxq0:{<8ksxyvg__:^cvxxtn9[^_6oxyz               ",
"                         yzr73333/@*}33337mzz                                   zyrjjmmmjmmmjjjjmmuzz    zym3auwzzyzzzp)>7wzzywz         zyp!>!mzz        zzwmaduwr7!}ryyxwa}dpzz                              zzs5^]6ktyzzxyq2~~[oxzzyytn8^{4qyz               ",
"                        zyu3%...+.......@+}uz                                   zu7=**=**********;hzz    zzd%)ryzuppppd&./ppppuzz        zzm-.*mzz        zzm)#;jwp).*awyxp).&7wz                              zzq2]^0sxzzyyzvb]]5tzzzzzxsf_{|oyz               ",
"                        zwj-@,!!!!!!!!!>@%awz                                   xu3..#&&%%%%%%%%%=hzy  zzzza%)rzzm'>>>-@.&>>>>axy        zzm-.-mzz       zzwu}#./rwa&+!ryu7%.'mxzz                             zyvk4^_8qyyyzzxn[:ivxyzzys9:]2ivyz               ",
"                       zzu}.)puuuuuuuup/.!rzz                                   xw3+#}ddddddddddddrzz zzzzwa$)ruuh=###+..$$$#$7uz        zzm*.;pzz      zzurph;.-dpj>#'hph>.%7ppuzz                             yzyq9:^6oyzzzxteetxyyyyq8((8ovzy                ",
"                       zxp>#awyzzzzzzxp>#awzz                                   zu3+@/77777777777jxy  zzm7da%)m33pdad7=.%/7aaamzyyzyzzzzzzzj*.;pzzzzzzzyzwm!>>&+%;>>&@*>>-+.#;>'hwz                    zwxyzzzy  zzwtc<^5qzyzzxyyyyyyys8^:bsyzz  zzzzxzzy       ",
"                       zwd%-mzwzzzzzzzh&-mwzzzzzyyyzwzz                         yw3+...+++++++++#7uw  zwa#/a$)h=>pxwp3%..&!apxxzwzzwwwwwwwwh&.,pxwwxxxwwzxj*..++++++++++++++.+.$awz                   zyyvtvyyyzxyyzztg<^5szzzzzzzzzyt9^:ctzzyyyyyyyxvvxzz      ",
"                       zw7+'rzwyyzzzzza$,rwzywzyzzzzzzzy                        yw3+@>///////////dwz  zza+/a$)d=>ppd!%.>)&+&!aryxxm33333333/$.=}33333333dwj=+;}}}}}}}}}}}}}}},@%awy                   zysc8biqtxyzyyzztf:^9tzzzzzzzzvc:_btxxyzzzxtqlc9bqyzz     ",
"                       yw7+)rxyzzzzzzwa$'rxwrpmmmpmmmprzz                       yw3.#3mmmmmmmmmmmrxx  zza#/a%)d*>a)&+$!jra)%.;dzzza$....+........+++...+}xj*@/uuuuuuuuuuuuuxu3+$awy                  zztb({{_|5covyyxzytb(:ixzzzzyzyk[^0syxxzyvqg5|_{{^8qyz     ",
"                   yzz ywa#'pyyzzzzyzzd&;mxu3;;;;;;;;;3uz                       zw3++*>>>>>>>>>>>7wz  zw7#/a$)h=>h/#;3jrrpj3=/muzva&######$@.@..#######$}xj*./ra77777777777mu3+$awx                 zyvg:(22[({^|9ovxzzxs8]1oyzzzywq4]4qyzyzvqb1({^<22:(9tyz    ",
"                  wzyyzzwh&=jzxyyyyyzym-&dxu}&&&&&&&@./uz                    xyyxx3@.%&%&&&&&&&&&3wzzzyw7#/a$)h*-/-@='''''''&;!jwypaaaaaaa7-...*7aaaaaaajzm';}p'...+++....#'j7;>dzx                zxvn|^8qtqi8[^^|bqyzzyq1]8txxxzvb^[nyzzxsc1^^[8gosqb(<ivzz   ",
"                 zwrmrzyuh;#3pppppppppm)@/prphhhhhha=#7wz                   xzzzwu3+#}dhhdddddddhmwzyyxx7#/a$)h=;'++#++..++...&hxzwzzwwzxwj*...*hxwxzzzxzxumprr/;>;;;>;%..#/prmmrzx                zys5{2qxzyytob1^^4ktyyvg_<kyzzyo[^cvzyvn4(]|botxzzxq5{1oyy   ",
"                zzr}-7wxa,%.&>>>>>>>>>>&.%>!mzxwzzxd&;mwz                   zzj777)@#/77777777777777dxwwa#/a%)h*;737333333}*+;3pwzxyzyyyzw7#.@.#}uyzzzzzzyzzyywrpppppm7=+%}pwzyzxz                zyvg_<ivzzyyzxvqb<{[bsxxt5]5tzzt0{2qzztg[]<0qvxzyyzxxn|^9tzz  ",
"               yzr3%$7uj;.#%$#$$$$$$$$$$#@.=jwyzzxx3+!rzz                   zw7#@@@...++@@#+++.@@@@+/uwza@/a$)d=>pphhhhhhpm;.!rzyz     yyp!.@'&.;jxx    zzzzzzzzyyyu7/-.-7rxxwxxyzz               zyq1{0tyyzzzzyyytl4^_0syyk:<kyyn[(gvytb:]4isyzyzzzzyzvb^[oyzz ",
"              wzr3&+,pu}+>adddddaadaaaad7*@}rxyzyzu/+}wy                    wxa;--&.@*--%..&--;-&%-;}uyw7#/a$)d=>p3**&&&*ap;.!uzz     zzwa&.;d).+}ryz   zwrjjmmjjjjd>..*3hjjmmjmpxy              zwvc^|oyzzzzzzzzzyvq0_^8qxs5{8tv9]2qxs9_^8qyzyyzzzzzzzyq2]0vyz ",
"             zzu7*.@3xj-$awwwzzzzzzzzzzwa$-jyyxzywr!#7yy                    wxrmmm}+#3mm3#@!jmmd'&}jpyzw7#/7$)d*>p3+*)'%#ap;.!uz      zzp)..}ra&.=dwyz  zwa=********@..#*****===}uy              zxs2{0tzzzzzzzzyyyyztb:(8qtg([oq1^cvs9((0syyyyyzzzzzzzzvc^[oxz ",
"            xzua=..=ju3@'pzzyyyyyyyyyyyr!+}uzzzwxxr,$awz                     yyxwu3+#axwm>.=arh)#+'jxzyw7#;)@=/%>p3@!pm>#ap;.!uz     zzr}#.-hxr!++'jwzz yw7#++++#++@.@.@##@#+#++/uz              zvi_<nyzzzzzzzzyyzxyztb:^8sq1^fg_[qtb((9szzxyzzzzzzzzzzzq|^cvzy",
"           xyua=+$+!rr)@3wyxzzzzzzzzzzzj=&dxzzzzxxr'%awz                      zzzx3.#axyua&+;/-.&!huzxyw7#.+....>p3+,aa=#ap;.!uz   yzzr7&.$3uvxd=..!mzzzyxj777777773-+&}77777777duy             zzt8{5tzyvvttssstvvxywysb__cs0{26{5si<(9sxzxxxvttsssstvvxv9{4tzz",
"          wzud-+!>.3uj=*hzwyzzzzzzzzxywa#,pzzzzzzxr)$ayy                      zyyu3.#axxzp}#.++;7rwyzzzza#*))),@>p3+#$$+#ap;.!uz zyyxr7*.+!pzyxu7&.@!jxyyzwxxwwxwwwr)+*jzzzzzwwzzyy             zzq|^fokgb06422460ckqtyyt8^[ki_^(^fl1{6syxvsng056422468blog_[oxy",
"         zvxh;.!h,%awa$>rxzzzzzzzzzzxxu}./uyzzzzywu!+7zz                     zyzzu3.@7mha3//%.@;apuxyyzw7@/prrh'!p3+*////hp;.!uzxyzum/&.+)jzzzzzr}$.+>apwzzwwyyxwzzr)+*jyzyyzzzzyx              zxk_^11:({]]^^^^{]^:18iqtq4{4l|{{<f5{1ovsi02<^{^^^^^^^{^:|2(^exy",
"        zwxh>+)mm-*hw3+!uyzzzzzzzzzzzzu!+3xzzzzzzzu}+/uzz                    zzrja)..*-&#+)m3*..%>}amuywa'3uxyuppu7=}rupmph-./uzzyp7>..#)jwzz  zyr}&@.&!duw  zzrjjmd;.*jzz                      zxc{~{^:1550cgggb82<^]_2bol<^61{{[0_:gqg4_]^<150bggggc04[^{~{0vx",
"       yywj'+'jxj*-mw}+}uzyzzzzzzzzzzyr)#awzyyyzzzxa$,pzz                    zxd=%....+#&;}rud)%..@&3uyzuprzzzzzzzrmrzwj)';@.}uzzxd=..&/mwzz    xwr3=..%3uw  yzp)***@.;myz                      yvc_<5ckstvvxyyxvtsng6<^^2f6^<[{~<[{2f4(]<4cnqtvxxyyxvvtog8|_9vx",
"      yzzj).,juwh&;pu}+}wzzzzzzzzzzzxzr'#axzzzzzywxj-&hyz                    zym;$&;'/3ahmrzywra!=$)mwwyzzzz  zzzzzzzyyr!..+-dzzxxu7&>7pzzz      zvud!&/pyx  zzu3@++@&3uzz                      yysiosxxzzzzzzzzzyzyysn9[{_[^]^{{^]^<:{<8ksyyyzzzzzzzzzyyxtqkqyy",
"     yxwm)+>hwxxh&;pw}+}uzzzzzzzzzzzywr)#7xyzzwwxwxr!+}uzz                   zzuaahpruuxxzzzzxxxrj7hwzy zzz       zzzyywa}}7huyz yxramuzzz        zyzpamwzz   zzm}}}7drwz                       xyzyzzzyzz   zzzzyyyxxytn5:{{{{{{{{{~(6ktyxxzzzxzzz    zzzzzyyxx",
"     ywm!.;duyxxj&-mw3+/uzzzzzzzzzzzzzu/+3wuhdddddda/+;mzz                    zzywzyyyyzzyy  zyzwwwzzz                yywuwwzzz   zwwyzzz          zxyzwzx    zzwwwuwwzz                         yyzyy     zzzzyvvsqonnnnl0<{{{{{{{{_0lnknnoostvyzzzzz    zzzyy ",
"     zu}@.,ajpuwj**jwa$,pzzzzzzzzzzzzyu}+/uh=$$$%%%%#+@7zz                     zzzzzz           yzzyy                  zzzzzzz     yzzz             yzzzy      zzzyyzxy                                 zzxzxvqkg04|<:::<[[_{{{{{{~{_[[<:::<[159iqtyzzzy        ",
"zzxyyyu}%..#*>/77*%dwh**jwxyzzzzzzzzzywa$>pm!,,,,,,,,,)hwz                                                                                                                                             zzzxsk01:^{{^_<<<<:^{{{{{{{{{{^_:<[<<_^{{([8iqvxzz       ",
"yzzwzzwpd3/>*#..%.@3wp,+7uuuxxxxwwwwxuuj-&hxrpppprrppprwzzz                                                                                                                                          zyyysi5<]^<28bgkooolf1]{{{{{{{{]<0loqonkg04[(]_4gsyyzy     ",
"zzm7dmruwxupja})-%#}uu3.>}}3333333333}3}*+}uywwzzzzzzzzwwzzz                                                                                                                                        zyxtk5:{:6costxyxxvn0|^~^:1441<^]]<8ltvxxvttog5<{(4ktyzz    ",
"xu3+@-)}amruxwurmdapxzh=.+++++++++.+++++++'pmaaaaaaaaaaaapzy                 yzzyz                                                       yyzy                zzxy                                  zzyqb[]:5ksyyywzzvqb[]^[5gnqtsqog81(]<9ovxzxzyysk8<{<0qyyy   ",
"ywh/;%..#='}7hpuwwzzxzu7////////>+=///////am)####$$$##$$$/uz                yyzzzyy       zzyyyyy                 zzzz   zzzz           yyzxyz              zzyxyz        zzxzzyzyyzzxyxxz        yxxo5(^4isxyzzwxzvk4^^2cotttsxxsstvqg4(^2itzzxyzyvtk4^^4nvxyz ",
"zzzrmd3/-+..@*>/7dprwzyuuuuuuuuu3+/ruuuuuuxa%&,,,',,,,'*./ux               zzvsqsyz      xxyyyzyyzzxzzzzzzzzzz   yxxxzzzyxyxzz         zxtqqtxy            zztoqvyy      xzxvyxxttxzzxtvyzz      zzvo4{:0qxyzzzzzytg[][bqvzyk49tvb4evzxqc|]<cszyyyyzwxsb<{1kvxyz",
"yxxzzzwrd*.;,*$++&;)}amruwxwxxxw3+/uwxxwzxp)+}prrrrrppp/+}uz               zzs5[9vz     zztqqqqqtvtsttttttttvyz yxvkntzzytosyz         zxo11nxz            zve[4qxy     yxvncqyn58syys9coyy     zxvk1~[gsyzzzyyyytc<]4kvxzzxe^2st5{9vyzxvn6^:9syzyyzzyyti|~[gtxz",
"   zzyyzr/+!mja}!;%..%-)}7aaaaaa/.,aaaaaaa3%-jxxzzzzyyu!#7wz               zxs1~8vz     zyk1[[[|8l8444444444nxz zwq1<bvys8[9vzx   yzzzzzzn:(iyzwzzyyz      zvb{[oyz     zxq4^0tn[_gvxi_:gvx     zxo1{|ivzzyyzzyytg:^6qxzzzyyi(|qs4^cyzzzzvq8((btyzxyzyzzvk2{[kyz",
"       zwd&*hzxxrpd7/>&++#######+.+@##$$###+}uyzzzzyyyr'%azz               yys|~9vz     zyk({:^~[f<~{^^^{{{:kxzzwvc^{byyt5{|nxx  yyyyyyyyk:(ixzxyyyzzz     zv9{|qzy    zxxvb^<ks8^5sq4]4qxxz    zxe^:ivyzzzzyyxvi<^8qyxy  zyn:<qs|(iyz  yxys0(:gvyyyzzzzyvk<~9vx",
"       yyr!+}uzyzyxuuph7/),,,,,,,,,,,,,,',,!jzzzzzzzyym;&hzz         zzzzzzzyq|{bvzzzzzzzzk(<g6{4l[^5cccccccqyzzzq1~|oyzyi:{8tyyzytnnkkkk0(^0kkknkkqyzzzzzzzv9{1qzyzzzzzxoe0_(8c6_6f0_]6bivw    zxk::lyzzzzzzxxo2~6qzyy   zyo[:ko[:nyz   zzxs8{[kyzzzzzzzxo<(eyx",
"        zza&-jzyzzzzzyxxurprrrrrrrrrrrrrrrrrwyzzzzzzyzj*-mzz        zzyyyyyxxo[{cvxyyyyyyyk(|o5^co[_kvxxyyyxyzxzt9^^bvxzzt5~:gvzzwk[:____(~{^__::_:gxzyyyyyyt8{1syyyyyyyvc(^]]^^^{^^^~~^^4tw    yxt4{5syyzzzyyt8]1nyzz    zys1(in:[qyz    yzyq4{4qxyzzzzyt0{1syy",
"        zzp)+}uzzzzyyyyzyzzyyyyyyyzyzzyyyyyzzyzzzzyzzu3@,pzz        zysiiiiiic:{6iiiiiiisyi(|l1:nq<:kxxyyyyyzzxvk<~2qyyxyxn[~1oxzxk[___(((________:gxtniiiiig2{[giiiiiiqv9{:24444444444[{4tz     xxg::ivyzxyyxi:_gvzz     zyt4^gi(|szz     zyxk<(evzyxzyyk<^fvxz",
"        zzwa$-mzyzzzzzzzzzzzzzzzzzzzzzzzzzzzzzzzzzwxua=$3uzy        xyi:(((((^~{^((((((<kyi(|f<2qo<(0iiiiikqvzxo2~:evzzwzztb^~4oxztnklggkkkkklfgllnqyq1(((((({~{(_(((((9t9{6qssssssssssb^4ty     yzs5{2oxzyzyt5~5syz       zt5{bf^2szz      zzs0^2qxzzzxs5{2qzzy",
"         wzp'+3uyzzzzzzzzzzzzzzzzzzzzzzzzzzzzzzzzwzzj>+/pxz         yyi:(((((^~{{^__(((<lyi([6^8tq[~^(((((_5syq5{{8syqqtxyzq4{^5syyxvn9ctyvyyt05gtxzzq2((_(_^~{{{_(((((9t9]5kcbbccccbgqb^2ty     yzxn|]0txyzyi_<kyz        zv9{50{5tz        zyo|^gvzyztb^:ixxz ",
"         zyw7#>mzzzzzzzzzzzzzzzzzzzzzzzzzzzzzzzzzxzp!+'mxzy         yxskkiiii2{{^8kkikiktxi(|f<[oo<~~^|11(~4sve(~2oyt8|8syyyn1~|nxxyv9{|qzyzwq|~5tyyxvnkkkkk0^~{|giiiiiqve4cg_^^^^]{{(8g49ty      yzvg::btxxt8{5szz        zxc{26~8vz        zyv9{4szyvi<^9tyy  ",
"      zzxyxwm>@7uzzyyzwzxzyzyyyzzzzzzwzyzzyyxzzzxxr}#-dwzx          yyzyyyyys2~{{8tyyyyyzxk(|o5^0l<~~|lso1~9vyq82kvxo[~4txxzvi4ivzzzyi__iyzzyn<{bvz zzzxxxyvb^~{[oxyyxyyxtttn85585|^~<etstyz       yzs0^<gtyq[(ixz         zyi^<[{bxz         zyk<<nyvl|{5qyy   ",
"    zxyyxurmh!+>mwzzyzzzzyxwupjhhjpuzyxwzyyzzzurmh3&#3uxzxzx         zzzyzyyn<~^{[oxyzzzyyk(|qg^4g<{{<nvo<^iyxztqvzvb^^gvzxyyvqvzz zyq[{9vzyyg^(ixz  zzyyzzs4~^{^cxzzzzzvxxwvtttql2][etyyyzy        yys5^<etg^|qyz         zyk_^(^gyz         zzs4^bsk|{2oyyy   ",
"   zzzuph3)-&$.@)7jrwxywxuma/>*&&=,}amuwwyxwph3)=&#.#)3hpuzyz            zzv0{:6_^bvzz  yyk(|qk_|f__[{9sc{[qyzzzxxxs2~1qxvoktzwwy  zzt4~4sxyv9~|qxy      xxk<{6|~2qyy  zzvtvtvtsc[^[gstttvyzz       yzxo6]<b6]5tyz         zzo<]](iyz         zzvb]2f[]2nvwz    ",
"   zwj}>&++&-;-&++*)}add7/;#+#*;;*$+%;/7dda}'*++&-;;&+@*'}mzz           yzyk[~5o4~|oyzz yyk([ng(|0^10(|l2~8txy yzzxi_^cvve[[kvzy    zv9{[qzzs4~5tyz     zyt5{<lb^(cvzz zvc588885[{{<655589syz        ywxq5^((]cxz          zzq|~~:kyz          zyi_^_]2nvzz     ",
"   zu}+#*)3hmpmd3)*#+#%$#+&>/ajppja/;$+#$%#+$=!3hmpmh3)*##3xy           zys5{_ivc^{8szz zyk(:2<{46{5o2{[^:kyz   zyt5~|oyvi<~2oyy    zyg^:nwxo<{cvy     zxve:{8to|~|oyyzzt5{{{]~{{{{{{{{{{[qzz         zzyq8_~_iyy          zws2~~[qyz          zxo<~^5oyzz      ",
"   zwj3ajrwzzzxxwrh7/,;>!}apuwzyzzwuma})>>'/7jrwzyzzwwrj7}jzy         zyytb(~5szs4~_btyyzyi(<6:2f2{bvg({{5swy zzzyn:^bvzzt9^^9tzzyzyxyn:(exye^:nyyyyzzzzvl|~<kyvc({5qyzxte999999|{<899999bsxz          zzxsb[1ozz          zzt6~{1szz          zzs4<9sxwz       ",
"   zzzuwzyzzzzzzxyxxurpprwzwzzzwwzyzxxurppruwzyxwzywzzyzwuzzz        zzztc:~[nyzvl<~<gtxzyi(|lkql<_lvl<{^btzzzxxvs8{[ktssql[~<kyyyyxxxq89ovs5~2sxyyyyxxvn2{(btzyq5~^5oxzzvvvvvvt9^4qvvvvvvxzz           xzzvooyzz           zv8~~4tzz          yzvontyzx        ",
"    wxxzzy wxxmmruwwwyzwwyywupjhhmpuxyyyzzzzyzurmpvxz zzxyxz        xxvo8_~<gtxzztc_~:9qvyi(|qxt9{1on4{{~[csyxtgb0:~:4421|<^~{5syvniiigfgiic<{2gggiktxsg1{^8sxzyxn1~^4ktxyzzzxzv9{4tzzzyzzyy             yyyxxyz            zvb{~8vz            zyxxxzy         ",
"           zyp'-!7jrxxwyxuma/>*&&*,}apuxxzzwrh3!=!pyy               zvk2^~<gtzz yxs9:~^4nxk_|qyn[{6b|~:6[~_5oyt6{{~~~~~~~{{^^~_gyt4^(((((((^{{^(^((|oq8:~(5qzzzzyvk1~~<cvy ztkii4{4ty                      zzyz             zyg]{9vz             yyzy           ",
"           zzp!&+.*)3add7/;$+#*;;*$+&>/7dha}'*+.&!rzz               zyn|{1itzz   yzsc[{4qxk(|qxe:[g5{[gsl1{<ivv9:<[|24559bceb:^9tt5<<<<<<<<<<<<<<<<2qt8{:9qxyz  yyvn4^<ivz zt5(({^9vz                                       zxk(^eyy                            ",
"           zyxpd3'&+.#%$+.%;/ajppj7/-#+#%&#+#*)3hpxzz               zzvi9ovzz    yzzvn9kxyn|4sxtectn8nvzvo8btxyqnoqqsttvvvxxt9cqxvqooooooooooooooooqvxo9itxzz    zyyqbctzz zvg[[|5oyz                                       zxk:(iyz                            ",
"            ywzwurh3!';>)}amuxxzyxwrma})>;'/7hrwxzxz                 xzvvyxy      yzzytvzztqqvzzvtzvtyzyzxttzyzyyyzzyyyyxzyzztvyyyxxzzzzyyyyyyyyzyzzyzxtxyzz      zzxvvzz  zztqoqtyyz                                       yxq|<nyz                            ",
"             yzyzyzwurppruzzyzzzzzzzxwurppruwzzzzzy                   zzzzz         xyzzzzxzxwzzzxxzzzz zzxzy zzzzzzyz      yzzzzyzzzzzzyyyzzzzzzzzzyzzzzx         zzwxz    zzzzyxxz                                        yzvietzz                            ",
"                zzzzzzzzzzzzz      zzzzzzzzzzzz                                           zzzz                                                                               zzzzz                                           zyvvyz                             ",
"                                                                                                                                                                                                                                                                ",
"                                                                                                                                                                                                                                                                "};
