/* XPM */
static const char *team_logo_xpm[] = {
"256 64 29 1 ",
"  c #010000",
". c #342706",
"X c #1D1D2A",
"o c #631F09",
"O c #691F09",
"+ c #6F1D0A",
"@ c #751C0A",
"# c #7D1B0A",
"$ c #472407",
"% c #402609",
"& c #4E2409",
"* c #532208",
"= c #582108",
"- c #5E2009",
"; c #7F382C",
": c #4C4952",
"> c #880D0B",
", c #851A0B",
"< c #8D180B",
"1 c #96170C",
"2 c #9D160C",
"3 c #A4140C",
"4 c #AB130D",
"5 c #904C46",
"6 c #8B6C70",
"7 c #A48A88",
"8 c #C2B7C6",
"9 c #E5E5FA",
"0 c #F3F3FE",
/* pixels */
"0777777777777777777777777777777777777777777777777777777777777777777777777777777777777777777777777777777777777777777777777777777777777777777777777777777777777777777777777777777777777777777777777777777777777777777777777777777777777777777777777777777777777778",
"9...................................%%%%%%%%%%%%%%%%%%%%%%$$$$$$$$$$$$$$$$&&&&&&&&&&&&&&************=============-------------ooooooooooooOOOOOOOOOOOOOO++++++++++++++@@@@@@@@@@@@@@@@####################,,,,,,,,,,,,,,,,,,<<<<<<<<<<<<<<<<<<<<<<11111111111117",
"9..................................%%%%%%%%%%%%%%%%%%%%%%$$$$$$$$$$$$$$$$&&&&&&&&&&&&&*************===============-----------ooooooooooooOOOOOOOOOOOOOO++++++++++++++@@@@@@@@@@@@@@@@#@##################,,,,,,,,,,,,,,,,,,<<<<<<<<<<<<<<<<<<<<<<111111111111117",
"9...............................%..%%%%%%%%%%%%%%%%%%%%%$$$$$$$$$$$$$$$$&&&&&&&&&&&&&&************================----------ooooooooooooOOOOOOOOOOOOOO++++++++++++++@@@@@@@@@@@@@@@@####################,,,,,,,,,,,,,,,,,,<<<<<<<<<<<<<<<<<<<<<<1111111111111117",
"9............................%%XXXX:886<<<<,@;&%%%%%%%$$$$$$$$$$$$$$$$$&&&&&&&&&&&&&*************================----------ooooooooooooOOOOOOOOOOOOOO++++++++++++++@@@@@@@@@@@@@@@@#@##################,,,,,,,,,,,,,,,,,,<<<<<<<<<<<<<<<<<<<<<<11111111111111117",
"9.........................%%XXXXXXXX696   .$O><#o&%%%%$$$$$$$$$$$$$$$$&&&&&&&&&&&&&&************================----------ooooooooooooOOOOOOOOOOOOOO++++++++++++++@@@@@@@@@@@@@@@@####################,,,,,,,,,,,,,,,,,,<<<<<<<<<<<<<<<<<<<<<<111111111111111117",
"9........................%XXXXXXXXXXX6:        *><@&%$$$$$$$$$$$$$$$$&&&&&&&&&&&&&*************==========---===----------ooooooooooooOOOOOOOOOOOOOO++++++++++++++@@@@@@@@@@@@@@@@#@##################,,,,,,,,,,,,,,,,,,<<<<<<<<<<<<<<<<<<<<<<1111111111111111117",
"9......................%:XXXXXXXXXX688:          $+,O&$$$$$$$$$$$$$$&&&&&&&&&&&&&&************==========-----=----------ooooooooooooOOOOOOOOOOOOOO++++++++++++++@@@@@@@@@@@@@@@@####################,,,,,,,,,,,,,,,,,,<<<<<<<<<<<<<<<<<<<<<<11111111111111111117",
"9....................%:XXXXXXXXXX:89996            .><=$$$$$$$$$$$$&&&&&&&&&&&&&*************========-=--====----------ooooooooooooOOOOOOOOOOOOOO++++++++++++++@@@@@@@@@@@@@@@@#@##################,,,,,,,,,,,,,,,,,,<<<<<<<<<<<<<<<<<<<<<<111111111111111111227",
"9...................::XXXXXXXXXX7999906              *>O&$$$$$$$$$&&&&&&&&&&&&&&************==========----==----------ooooooooooooOOOOOOOOOOOOOO++++++++++++++@@@@@@@@@@@@@@@@####################,,,,,,,,,,,,,,,,,,<<<<<<<<<<<<<<<<<<<<<<1111111111111111112227",
"9..................:6XXXXXXXXX:99900006               .>@&$$$$$$$&&&&&&&&&&&&&*************================----------ooooooooooooOOOOOOOOOOOOOO++++++++++++++@@@@@@@@@@@@@@@@#@##################,,,,,,,,,,,,,,,,,,<<<<<<<<<<<<<<<<<<<<<<11111111111111111122227",
"9.................:68XXX:::XX7999000006                 @,*$$$$$&&&&&&&&&&&&&&************================----------ooooooooooooOOOOOOOOOOOOOO++++++++++++++@@@@@@@@@@@@@@@@####################,,,,,,,,,,,,,,,,,,<<<<<<<<<<<<<<<<<<<<<<111111111111111111222227",
"9................:796889999878900000006                  @#&$$$&&&&&&&&&&&&&*************===========--===----------ooooooooooooOOOOOOOOOOOOOO++++++++++++++@@@@@@@@@@@@@@@@#@##################,,,,,,,,,,,,,,,,,,<<<<<<<<<<<<<<<<<<<<<<1111111111111111112222227",
"9...............:7968999999988000000097                   @#&$&&&&&&&&&&&&&&************============--==----------ooooooooooooOOOOOOOOOOOOOO++++++++++++++@@@@@@@@@@@@@@@@####################,,,,,,,,,,,,,,,,,,<<<<<<<<<<<<<<<<<<<<<<11111111111111111122222227",
"9..............:69879999999997000000097                    >+&&&&&&&&&&&&&*************=============-------------ooooooooooooOOOOOOOOOOOOOO++++++++++++++@@@@@@@@@@@@@@@@#@##################,,,,,,,,,,,,,,,,,,<<<<<<<<<<<<<<<<<<<<<<111111111111111111222222227",
"9.............%:98699999999096000000097X                    >o&&&&&&&&&&&&************==============------------ooooooooooooOOOOOOOOOOOOOO++++++++++++++@@@@@@@@@@@@@@@@####################,,,,,,,,,,,,,,,,,,<<<<<<<<<<<<<<<<<<<<<<1111111111111111111222222227",
"9............%:886899999990006900000087X                    $>*&&&&&&&&&*************================----------ooooooooooooOOOOOOOOOOOOOO++++++++++++++@@@@@@@@@@@@@@@@#@##################,,,,,,,,,,,,,,,,,,<<<<<<<<<<<<<<<<<<<<<<11111111111111111122222222227",
"9............:6968999999000007800000087X                     o#&&&&&&&&&************================----------ooooooooooooOOOOOOOOOOOOOO++++++++++++++@@@@@@@@@@@@@@@@####################,,,,,,,,,,,,,,,,,,<<<<<<<<<<<<<<<<<<<<<<111111111111111111222222222227",
"9............68779999999000008800000087X                      >o&&&&&&*************================----------ooooooooooooOOOOOOOOOOOOOO++++++++++++++@@@@@@@@@@@@@@@@#@##################,,,,,,,,,,,,,,,,,,<<<<<<<<<<<<<<<<<<<<<<1111111111111111112222222222227",
"9...........:79699999990000009700000097X                      o#&&&&&&************==============-=----------ooooooooooooOOOOOOOOOOOOOO++++++++++++++@@@@@@@@@@@@@@@@####################,,,,,,,,,,,,,,,,,,<<<<<<<<<<<<<<<<<<<<<<11111111111111111122222222222227",
"9..........%:87899999900000000700000096                        >-&&&*************===============-----------ooooooooooooOOOOOOOOOOOOOO++++++++++++++@@@@@@@@@@@@@@@@#@##################,,,,,,,,,,,,,,,,,,<<<<<<<<<<<<<<<<<<<<<<111111111111111111222222222222227",
"9..........:68:999999000000008X:6890087X                       =#&&&************;67765-=====-5555555555;o-ooooooo;5555555555;+OOOOOO+;55555555@+++@@@@@;555;@@@@@@###55555555;###;55555555;,,,,,,,,,,,,;67775<<<<<<;5555555555;111111111111111112222222222222227",
"9..........687899999000000009XXXXXX:887X                        >=***********=68999999986===;99999999999987Oooooo699999999999987+OO++899999999;++@@@@@@99999@@@@@#@#5999999997###6999999996,,,,,,,,,,;899999996<<<<799999999999985111111111111122222222222222227",
"9.........%::699999000000000:XXXXXXXX:7X                        >O**********=89999999999985=;999999999999999;oooo69999999999999995+++899999999;+@@@@@@5999995@@@####5999999997###6999999996,,,,,,,,,599999999997<<<799999999999999711111111111122222222222222227",
"9.........6XX699999000000007XXXXXXXXX:7X                        *#**********899999888999999=o7899999999999999;ooo;7899999999999999;++578999977@@@@@@@@7999998@@#@####789999875###;78999987;,,,,,,,,<9999988999996<<;78999999999999981111111112222222222222222327",
"9.........6XX:9999000000009XXXXXXXXXX:7X                         >*********;99998-***=59999====99996--o;799997ooooo;9999;OO;5899997++OO69998+++@@@@@@@9999999########@@99996#######;9999;#,,,,,,,,,799995,,;89998<<<<59999;<<;5899997111111122222222222222222337",
"9........%:XX:999900000009:XXXXXXXXXX:7X                         >=********79998=======7999=--=99996-----89999oooOo;9999;OOOOo89998++++69998++@@@@@@@699999996@########99996#######;9999;,,,,,,,,,,89997,<,,599991<<<59999;<<<<<89999;11111222222222222222232337",
"9........%:XXX899000000007XXXXXXXXXXX:7:                         @-********79998=======6999=--=99996-oooo59999OoOOO;9999;OOOOO69999++++69998+@@@@@@@@899969998@########99996####,,,;9999;,,,,,,,,,,99995<<<<;99995<<<5999911111<<9999711112222222222222222223337",
"9........%XXXX69900000009XXXXXXXXXXXX:7::X                       oo******=*69999;=====-5777---=99996-oooo59999OOOOO;9999;OOOOO69998++++69998+@@@@@@@#9998+9999#########99996###,,,,;9999;,,,,,,,,<,6666<<<<<59999;<<<5999911111117999811122222222222222223233337",
"9.......%%XXXX:800000000:XXXXXXXXXXXX:7: :X                  XX  =+*****===;999996-===--===----99996ooooo79998oOOOO;9999;OOO++89997++++69998+@@@@@@@69997@79996########99996##,,,,,;9999;,,,,,,,<<<,,,,<<<<<79999<<<<5999911111115999911222222222222222223333337",
"9......%%%XXXX6777777776XXXXXXXXXXXXX:7:  :                X677X ;O****=====799999975-=-=-=----99996oooO699996oOOOO;99996666799998+++++69998+@@@@@@@89995@59998########99996#,,,,,,;9999;,,,,,,<<<<<<<<<<<<;99997<<<<5999911111115999912222222222222222323333337",
"9.....%%%%X:7:6777799999XXX:6XXXXXXXX:7:  :     66X       X7777:77;***=======7999999997;-------99999999999997oOOOOO;9999999999997;+++++69998@@@@@@@;9999@@@9999;#######99996#,,,,,,;9999;,,,,,<<<<<<<<<<<<<89999<<<<<5999911111115999921222222222222222233333337",
"9....%%%%%X:7667777000096676:XXXXXXXX:7:  :>>>>@;5775@>>>>67777577O**=========58999999997------9999999999995ooOOOOO;99999999999986+++++69998+@@@@@@79997@#@79996#######99996#,,,,,,;9999;,,,,<<<<<<<<<<<<<799995<<<1<5999911111115999922222222222222232333333337",
"9...%%%%%%X:76677778888776:XXXXXXXXXX:7:  :>>>>>>>,677655567777577O*===========*;799999998-----99999999999996OOOOOO;999987778899997++++69998@@@@@@@89995@#@59998#######99996,,,,,,,;9999;,,,<<<<<<<<<<<<<799997<<<1115999911111115999922222222222222233333333337",
"9..%%%%%%%X:76777778777777XXXXXXXXXXX:7: X;>>>>>>>>>;7777667777577;================57999997--o-999976667899996OOOOO;9999;OOOOO69999;+@+69998@@@@@@;9999999999999;######99996,,,,,,,;9999;,,<<<<<<<<<<<<<699997<<<11115999911111115999912222222222223233333333337",
"9.%%%%%%%%:777777778777709:XXXXXXXXXX676:;>>>>>>>>>>>;777667777577;========o;;;=-====;89999-oo-99996-oo-o89998OOOOO;9999;O++++O89997@@@69998@@@@@@799999999999997######99996,,,,,,,;9999;,<<<<<<<<<<<<<599998<<<111115999911111115999912222222222222333333333337",
"9%%%%%%%%%77777777787779009:XXXXXXXX:7776>>>>>>>>>>>>>677667777577;========7998==---==59999;oo-99996ooooo59999;OOOO;9999;++++++79998+@@69998@@@@@@899999999999998######99996,,,,,,,59999<,<<<<<<<<<<<<599998<<<1111115999911111117999812222222222323333333333337",
"9%%%%%%%%%777777777877700008XXXXXXX:77777;>>>>>>>>>>>>677667777577-========7999-------o99995ooo99996ooOOOO99995OOOO;9999;++++++79998@@@69998@@@@@;999955555559999;#####89997,,,,,,,69999,,<<<<<<<<<<<599998<<<56651115999911111129999722222222222333333333333337",
"9%%%%%%%%%6777777778777888886::::::7777776555555555555677667777577=========7999;------59999;oo-99996oOOOOO99995OOOO;9999;+++++;99997@@@69998@@@@@79998@@@@@#@89997###,#79999;,,,,,<89998,<<<<<<<<<<<;99998<<<<79981115999911111289999222222222232333333333333337",
"9%%%%%%%%%:7768777777777777777777777777776777777777776677667777576=========799996;--o699998-ooo99996oOOOOO99996OOOO;9999655567999995@@@69998@@@@#99995#######69998##,,#;999996<,<5899995,<<<<<<<<<<;999996555589981115999955557999996122222222223333333333333337",
"9%%%%%%%%%&677888888888888888688888888655;555555555555;55555555;5;=========5999999999999995o;899999986OOOO899997O589999999999999997+@689999988#68999986#####68999986,,,#699999999999997,,<<<<<<<<<<8999999999999981589999999999999971222222223233333333333333337",
"9%%%%%%%%%%6070000000000000096000000007>>>>>>>>>>>>>>>>>>>>>>>>>>o==========58999999999996-o;999999997OOOO699999O69999999999999997+@@899999999;89999997#####79999997,,,,#6999999999997,,<<<<<<<<<<<8999999999999981799999999999999612222222223333333333333333347",
"9%%%%%%%%%%:888000000000000097000000007>>>>>>>>>>>>>>>>>>>>>>>>>>===========-=6899999997;-oo;999999997OOOOo68999O699999999999987;++@@899999999;89999997#####79999997#,,,,#;7999999975,,<<<<<<<<<<<<8999999999999981799999999999871122222222323333333333333333447",
"9%%%%%%%%%%&:96900000000000088000000007>>>>>>>>>>>>>>>>>>>>>>>>>+=========------=;555;=--oooo-------ooOOOOOOoooOOOOOOOOOOOOOOO+++@@@@++++++++@@@@@@@@@@######@@@@@##,,,,,,,##;555;,,,,<<<<<<<<<<<<<<,,,,,,<<<<<<<<11<<<<<<<<<<1111222222222233333333333333334447",
"9%%%%%%%%%%%:89700000000000088000000007>>>>>>>>>>>>>>>>>>>>>>>>>====----=--------------ooooooooooooOOOOOOOOOOOOO+++++++++++++++@@@@@@@@@@@@@@@##@##################,,,,,,,,,,,,,,,,,,<<<<<<<<<<<<<<<<<<<<<<<<1<1111111111111112222222222232333333333333333344447",
"9%%%%%%%%%%%&60780000000000079000000007>>>>>>>>>>>>>>>>>>>>>>>>+====--------------o-ooooooooooOOOOOOOOOOOOOO++++++++++++++@@@@@@@@@@@@@@@@####################,,,,,,,,,,,,,,,,,,,,<<<<<<<<<<<<<<<<<<<<1111111111111111112222222222222222233333333333333333444447",
"9%%%%%%%%%%%%:8069000000000069000000007>>>>>>>>>>>>>>>>>>>>>>>>==-====-----------ooooooooooooOOOOOOOOOOOOOO++++++++++++++@@@@@@@@@@@@@@@@#@##################,,,,,,,,,,,,,,,,,,<<<<<<<<<<<<<<<<<<<<<<11111111111111111122222222222222223233333333333333334444447",
"9%%%%%%%%%%%%&:996900000000060000000007>>>>>>>>>>>>>>>>>>>>>>>o=--====----------ooooooooooooOOOOOOOOOOOOOO++++++++++++++@@@@@@@@@@@@@@@@####################,,,,,,,,,,,,,,,,,,<<<<<<<<<<<<<<<<<<<<<<111111111111111111122222222222222222333333333333333344444447",
"9%%%%%%%%%$$$$&709600000000860000000007>>>>>>>>>>>>>>>>>>>>>>#==-====----------ooooooooooooOOOOOOOOOOOOOO++++++++++++++@@@@@@@@@@@@@@@@#@##################,,,,,,,,,,,,,,,,,,<<<<<<<<<<<<<<<<<<<<<<1111111111111111112222222222222222323333333333333333444444447",
"9%%%%%%%%%$$$$$:8096899998:XX8000000007>>>>>>>>>>>>>>>>>>>>>#-==--==----------ooooooooooooOOOOOOOOOOOOOO++++++++++++++@@@@@@@@@@@@@@@@####################,,,,,,,,,,,,,,,,,,<<<<<<<<<<<<<<<<<<<<<<11111111111111111122222222222222222333333333333333334444444447",
"9%%%%%%%%$$$$$$$:800:XXXXXXXXX800000007>>>>>>>>>>>>>>>>>>>>>-======----------ooooooooooooOOOOOOOOOOOOOO++++++++++++++@@@@@@@@@@@@@@@@#@##################,,,,,,,,,,,,,,,,,,<<<<<<<<<<<<<<<<<<<<<<111111111111111111222222222222222232333333333333333344444444447",
"9%%%%%%%$$$$$$$$&:808XXXXXXXXXX90000007>>>>>>>>>>>>>>>>>>>>o======----------ooooooooooooOOOOOOOOOOOOOO++++++++++++++@@@@@@@@@@@@@@@@####################,,,,,,,,,,,,,,,,,,<<<<<<<<<<<<<<<<<<<<<<1111111111111111112222222222222222223333333333333333444444444447",
"9%%%%%$$$$$$$$$$$&:80:XXXXXXXXXX7000007>>>>>>>>>>>>>>>>>>>O======----------ooooooooooooOOOOOOOOOOOOOO++++++++++++++@@@@@@@@@@@@@@@@#@##################,,,,,,,,,,,,,,,,,,<<<<<<<<<<<<<<<<<<<<<<11111111111111111122222222222222223233333333333333334444444444447",
"9%%%%%$$$$$$$$$$$$&:88XXXXXXXXXXX:90007>>>>>>>>>>>>>>>>>>o======----------ooooooooooooOOOOOOOOOOOOOO++++++++++++++@@@@@@@@@@@@@@@@####################,,,,,,,,,,,,,,,,,,<<<<<<<<<<<<<<<<<<<<<<111111111111111111222222222222222223333333333333333344444444444447",
"9%%%%$$$$$$$$$$$$$$&:7XXXXXXXXXXXXX6907>>>>>>>>>>>>>>>>#o---===----------ooooooooooooOOOOOOOOOOOOOO++++++++++++++@@@@@@@@@@@@@@@@#@##################,,,,,,,,,,,,,,,,,,<<<<<<<<<<<<<<<<<<<<<<1111111111111111112222222222222222323333333333333333444444444444447",
"9%%%$$$$$$$$$$$$$$$$&&XXXXXXXXXXXXXXX6;>>>>>>>>>>>>>>>#=-----=----------ooooooooooooOOOOOOOOOOOOOO++++++++++++++@@@@@@@@@@@@@@@@####################,,,,,,,,,,,,,,,,,,<<<<<<<<<<<<<<<<<<<<<<11111111111111111112222222222222222233333333333333334444444444444447",
"9%$$$$$$$$$$$$$$$$$&&&&XXXXXXXXXXXXXX97>>>>>>>>>>>>>,O-=-====----------ooooooooooooOOOOOOOOOOOOOO++++++++++++++@@@@@@@@@@@@@@@@#@##################,,,,,,,,,,,,,,,,,,<<<<<<<<<<<<<<<<<<<<<<111111111111111111222222222222222232333333333333333344444444444444447",
"9%$$$$$$$$$$$$$$$$&&&&&&&XXXXXXXXXXX707>>>>>>>>>>>,@==----==----------ooooooooooooOOOOOOOOOOOOOO++++++++++++++@@@@@@@@@@@@@@@@####################,,,,,,,,,,,,,,,,,,<<<<<<<<<<<<<<<<<<<<<<1111111111111111112222222222222222233333333333333333444444444444444447",
"9$$$$$$$$$$$$$$$$&&&&&&&&&&XXXXXXXXX907>>>>>>>>>,O=========----------ooooooooooooOOOOOOOOOOOOOO++++++++++++++@@@@@@@@@@@@@@@@#@##################,,,,,,,,,,,,,,,,,,<<<<<<<<<<<<<<<<<<<<<<11111111111111111122222222222222223233333333333333334444444444444444447",
"9$$$$$$$$$$$$$$$&&&&&&&&&&&&&%XXXXX6996>>>><,#@O==========----------ooooooooooooOOOOOOOOOOOOOO++++++++++++++@@@@@@@@@@@@@@@@####################,,,,,,,,,,,,,,,,,,<<<<<<<<<<<<<<<<<<<<<<111111111111111111222222222222222222333333333333333344444444444444444447",
"9$$$$$$$$$$$$$$&&&&&&&&&&&&&*****&$&::;;;;;-=======---===----------ooooooooooooOOOOOOOOOOOOOO++++++++++++++@@@@@@@@@@@@@@@@#@##################,,,,,,,,,,,,,,,,,,<<<<<<<<<<<<<<<<<<<<<<1111111111111111112222222222222222323333333333333333444444444444444444447",
"9$$$$$$$$$$$$$&&&&&&&&&&&&&&************============--==----------ooooooooooooOOOOOOOOOOOOOO++++++++++++++@@@@@@@@@@@@@@@@####################,,,,,,,,,,,,,,,,,,<<<<<<<<<<<<<<<<<<<<<<11111111111111111122222222222222222333333333333333334444444444444444444447",
"9$$$$$$$$$$$$&&&&&&&&&&&&&*************=============-------------ooooooooooooOOOOOOOOOOOOOO++++++++++++++@@@@@@@@@@@@@@@@#@##################,,,,,,,,,,,,,,,,,,<<<<<<<<<<<<<<<<<<<<<<111111111111111111222222222222222232333333333333333344444444444444444444447",
"9$$$$$$$$$$$&&&&&&&&&&&&&&************==============------------ooooooooooooOOOOOOOOOOOOOO++++++++++++++@@@@@@@@@@@@@@@@####################,,,,,,,,,,,,,,,,,,<<<<<<<<<<<<<<<<<<<<<<1111111111111111111222222222222222223333333333333333444444444444444444444447"
};