/* XPM */
static char *f8ca20b57fab471e924a26590dd78108517MNZZr7loCQzxf[] = {
/* columns rows colors chars-per-pixel */
"198 64 37 1 ",
"  c white",
". c #939598",
"X c #F0F0F1",
"o c #7C7D7F",
"O c white",
"+ c black",
"@ c #3191CF",
"# c None",
"$ c white",
"% c white",
"& c #545557",
"* c #626365",
"= c #212122",
"- c #C7C8CA",
"; c #D4D5D6",
": c #CBDBF1",
"> c #ACAEB1",
", c #D6E4F5",
"< c #6CA5D9",
"1 c #E1E2E3",
"2 c #84B1DF",
"3 c #454547",
"4 c #B9BBBD",
"5 c #B3CBEA",
"6 c #F1F6FC",
"7 c #87898C",
"8 c #4295D1",
"9 c #E4EDF8",
"0 c #6F7072",
"q c #9FA1A4",
"w c #A7C4E7",
"e c #79AADC",
"r c #90B7E1",
"t c #539AD3",
"y c #BFD3ED",
"u c #9BBDE4",
"i c #609FD6",
/* pixels */
"%                                                                                                                                                                                                    %",
" OOOOOOOOOOOOOOOOOOOOOOOOOOOOOOOOOOOOOOOOOOOOOOOOOOOOOOOOOOOOOOOOOOOOOOOOOOOOOOOOOOOOOOOOOOOOOOOOOOOOOOOOOOOOOOOOOOOOOOOOOOOOOOOOOOOOOOOOOOOOOOOOOOOOOOOOOOOOOOOOOOOOOOOOOOOOOOOOOOOOOOOOOOOOOOOOOOOO ",
" OOOOOOOOOOOOOOOOOOOOOOOOOOOOOOOOOOOOOOOOOOOOOOOOOOOOOOOOOOOOOOOOOOOOOOOOOOOOOOOOOOOOOOOOOOOOOOOOOOOOOOOOOOOOOOOOOOOOOOOOOOOOOOOOOOOOOOOOOOOOOOOOOOOOOOOOOOOOOOOOOOOOOOOOOOOOOOOOOOOOOOOOOOOOOOOOOOOO ",
" OOOOOOOOOOOOOOOOOOOOOOOOOOOOOOOOOOOOOOOOOOOOOOOOOOOOOOOOOOOOOOOOOOOOOOOOOOOOOOOOOOOOOOOOOOOOOOOOOOOOOOOOOOOOOOOOOOOOOOOOOOOOOOOOOOOOOOOOOOOOOOOOOOOOOOOOOOOOOOOOOOOOOOOOOOOOOOOOOOOOOOOOOOOOOOOOOOOO ",
" OOOOOOOOOOOOOOOOOOOOOOOOOOOOOOOOOOOOOOOOOOOOOOOOOOOOOOOOOOOOOOOOOOOOOOOOOOOOOOOOOOOOOOOOOOOOOOOOOOOOOOOOOOOOOOOOOOOOOOOOOOOOOOOOOOOOOOOOOOOOOOOOOOOOOOOOOOOOOOOOOOOOOOOOOOOOOOOOOOOOOOOOOOOOOOOOOOOO ",
" OOOOOOOOOOOOOOOOOOOOOOOOOOOOOOOOOOOOOOOOOOOOOOOOOOOOOOOOOOOOOOOOOOOOOOOOOOOOOOOOOOOOOOOOOOOOOOOOOOOOOOOOOOOOOOOOOOOOOOOOOOOOOOOOOOOOOOOOOOOOOOOOOOOOOOOOOOOOOOOOOOOOOOOOOOOOOOOOOOOOOOOOOOOOOOOOOOOO ",
" OOOOOOOOOOOOOOOOOOOOOOOOOOOOOOOOOOOOOOOOOOOOOOOOOOOOOOOOOOOOOOOOOOOOOOOOOOOOOOOOOOOOOOOOOOOOOOOOOOOOOOOOOOOOOOOOOOOOOOOOOOOOOOOOOOOOOOOOOOOOOOOOOOOOOOOOOOOOOOOOOOOOOOOOOOOOOOOOOOOOOOOOOOOOOOOOOOOO ",
" OOOOOOOOOOOOOOOOOOOOOOOOO95u<<<<<<<u59OOOOOOOOOOOOOOOOOOOOOOOOOOOOOOOOOOOOOOOOOOOOOOOOOOOOOOOOOOOOOOOOOOOOOOOOOOOOOOOOOOOOOOOOOOOOOOOOOOOOOOOOOOOOOOOOOOOOOOOOOOOOOOOOOOOOOOOOOOOOOOOOOOOOOOOOOOOOOO ",
" OOOOOOOOOOOOOOOOOOOOOO1.O2@@@@@@@@@@@2O.1OOOOOOOOOOOOOOOOOOOOOOOOOOOOOOOOOOOOOOOOOOOOOOOOOOOOOOOOOOOOOOOOOOOOOOOOOOOOOOOOOOOOOOOOOOOOOOOOOOOOOOOOOOOOOOOOOOOOOOOOOOOOOOOOOOOOOOOOOOOOOOOOOOOOOOOOOOO ",
" OOOOOOOOOOOOOOOOOOOO-*+0Ot@@@@@@@@@@@tO*+0-OOOOOOOOOOOOOOOOOOOOOOOOOOOOOOOOOOOOOOOOOOOOOOOOOOOOOOOOOOOOOOOOOOOOOOOOOOOOOOOOOOOOOOOOOOOOOOOOOOOOOOOOOOOOOOOOOOOOOOOOOOOOOOOOOOOOOOOOOOOOOOOOOOOOOOOOO ",
" OOOOOOOOOOOOOOOOOO1*+++>,@@@@@@@@@@@@@9>+++01OOOOOOOOOOOOOOOOOOOOOOOOOOOOOOOOOOOOOOOOOOOOOOOOOOOOOOOOOOOOOOOOOOOOOOOOOOOOOOOOOOOOOOOOOOOOOOOOOOOOOOOOOOOOOOOOOOOOOOOOOOOOOOOOOOOOOOOOOOOOOOOOOOOOOOO ",
" OOOOOOOOOOOOOOOOOq=++o1Ow@@@ww@@@ww@@@5O1o++=>OOOOOOOOOOOOOOOOOOOOOOOOOOOOOOOOOOOOOOOOOOOOOOOOOOOOOOOOOOOOOOOOOOOOOOOOOOOOOOOOOOOOOOOOOOOOOOOOOOOOOOOOOOOOOOOOOOOOOOOOOOOOOOOOOOOOOOOOOOOOOOOOOOOOOO ",
" OOOOOOOOOOOOOOOXo++*1OOOe@@@::@@@::@@@eOOO;*++oOOOOOOOOOOOOOOOOOOOOOOOOOOOOOOOOOOOOOOOOOOOOOOOOOOOOOOOOOOOOOOOOOOOOOOOOOOOOOOOOOOOOOOOOOOOOOOOOOOOOOOOOOOOOOOOOOOOOOOOOOOOOOOOOOOOOOOOOOOOOOOOOOOOOO ",
" OOOOOOOOOOOOOOX&++qOOOOO8@@@yy@@@yy@@@8OOOOO.++&XOOOOOOOOOOOOOOOOOOOOOOOOOOOOOOOOOOOOOOOOOOOOOOOOOOOOOOOOOOOOOOOOOOOOOOOOOOOOOOOOOOOOOOOOOOOOOOOOOOOOOOOOOOOOOOOOOOOOOOOOOOOOOOOOOOOOOOOOOOOOOOOOOOO ",
" OOOOOOOOOOOOOX&+=;OOOOO,@@@@88@@@88@@@@,OOOOO-=+&XOOOOOOOOOOOOOOOOOOOOOOOOOOOOOOOOOOOOOOOOOOOOOOOOOOOOOOOOOOOOOOOOOOOOOOOOOOOOOOOOOOOOOOOOOOOOOOOOOOOOOOOOOOOOOOOOOOOOOOOOOOOOOOOOOOOOOOOOOOOOOOOOOO ",
" OOOOOOOOOOOOX&+=;OOOOOOu@@@@@@@@@@@@@@@wOOOOOO;=+*OOOOOOOOOOOOOOOOOOOOOOOOOOOOOOOOOOOOOOOOOOOOOOOOOOOOOOOOOOOOOOOOOOOOOOOOOOOOOOOOOOOOOOOOOOOOOOOOOOOOOOOOOOOOOOOOOOOOOOOOOOOOOOOOOOOOOOOOOOOOOOOOOO ",
" OOOOOOOOOOOOo+=;OOOOOOO,<@@@@@@@@@@@@@<,OOOOOOO;=+7OOOOOOOOOOOOOOOOOOOOOOOOOOOOOOOOOOOOOOOOOOOOOOOOOOOOOOOOOOOOOOOOOOOOOOOOOOOOOOOOOOOOOOOOOOOOOOOOOOOOOOOOOOOOOOOOOOOOOOOOOOOOOOOOOOOOOOOOOOOOOOOOO ",
" OOOOOOOOOOO4++-OOOOOOOOOO:2@@@@@@@@@29OOOOOOOOOO4++4OOOOOOOOOOOOOOOOOOOOOOOOOOOOOOOOOOOOOOOOOOOOOOOOOOOOOOOOOOOOOOOOOOOOOOOOOOOOOOOOOOOOOOOOOOOOOOOOOOOOOOOOOOOOOOOOOOOOOOOOOOOOOOOOOOOOOOOOOOOOOOOO ",
" OOOOOOOOOOOO-;OOOOOOOOOOOOO92@@@@@29OOOOOOOOOOOOO;-1OOOOOOOOOOOOOOOOOOOOOOOOOOOOOOOOOOOOOOOOOOOOOOOOOOOOOOOOOOOOOOOOOOOOOOOOOOOOOOOOOOOOOOOOOOOOOOOOOOOOOOOOOOOOOOOOOOOOOOOOOOOOOOOOOOOOOOOOOOOOOOOO ",
" OOOOOOOOOO,:::::6OOOOOOOOOOOO92@29OOOOOOOOOOOOOOO:::,OOOOOOOOOOOOOOOOOOOOOOOOOOOOOOOOOOOOOOOOOOOOOOOOOOOOOOOOOOOOOOOOOOOOOOOOOOOOOOOOOOOOOOOOOOOOOOOOOOOOOOOOOOOOOOOOOOOOOOOOOOOOOOOOOOOOOOOOOOOOOOO ",
" OOOOOOOOO9@@@@@@rOOOOOOOOOOOOOOOOOOOOOOOOOOOOO2@@@@@@9OOOOOOOOOOOOO;.....................4OOOOO1.......4OOOOOOOOOOOOOX.......>OOOOOX.....................XOOOOq......-OOOOOOOOOOOOOOO4......>OOOOOOO ",
" OOOOOOOOO2@@@@@@iOOOOOOOOOOOOO>*>OOOOOOOOOOOOO8@@@@@@2OOOOOOOOOOOO-=++++++++++++++++++++++.OOOOOo+++++++>OOOOOOOOOOOX&++++++=;OOOOX&+++++++++++++++++++++&XOOO4++++++=;OOOOOOOOOOOOO-++++++=;OOOOOOO ",
" OOOOOOOO6@@@@@@@@6OOOOOOOOOOOO.+.OOOOOOOOOOOO,@@@@@@@86OOOOOOOOOO>+++++++++++++++++++++++++oOOOOOo+++++++>OOOOOOOOOX&++++++=;OOOOO&+++++++++++++++++++++++&XOOO>++++++3XOOOOOOOOOOO1=++++++4OOOOOOOO ",
" OOOOOOOOw@@@@@@@@5OOOOOOOOOOOO.+.OOOOOOOOOOOOw@@@@@@@@5OOOOOOOOO>+++++++++++++++++++++++++++oOOOOO.+++++++>OOOOOOOX&++++++&;OOOOOo+++++++++++++++++++++++++&OOOOo++++++&OOOOOOOOOOX&++++++>OOOOOOOOO ",
" OOOOOOOO<@@@@@@@@2OOOOOOOOOOOO0+0OOOOOOOOOOOO<@@@@@@@@eOOOOOOOO;+++++++++++++++++++++++++++++qOOOOO>+++++++>OOOOOX&++++++&XOOOOOq+++++++++++++++++++++++++++qOOOOo++++++oOOOOOOOOOo++++++7OOOOOOOOOO ",
" OOOOOOOO@@@@@@@@@tOOOOOOOOOO1&+++&1OOOOOOOOOO@@@@@@@@@@OOOOOOOO-+++++++++++++++++++++++++++++.OOOOOO>+++++++>OOOX&++++++&XOOOOOO.+++++*...............o+++++.OOOOX&++++++qOOOOOOOq++++++oOOOOOOOOOOO ",
" OOOOOOO:@@@@@@@@@@,OOOOOOOO4=+++++=4OOOOOOOOy@@@@@@@@@@,OOOOOOO-+++++*OOOOOOOOOOOOOOOOO.+++++.OOOOOOO>+++++++>OOo++++++&XOOOOOOO.+++++.OOOOOOOOOOOOOOO-+++++.OOOOOX3++++++4OOOOO-++++++&OOOOOOOOOOOO ",
" OOOOOOOu@@@@@@@@@@wOOOOOOXo+++++++++7OOOOOOOr@@@@@@@@@@5OOOOOOO-+++++*OOOOOOOOOOOOOOOOO.+++++.OOOOOOOO>+++++++>o++++++&XOOOOOOOO.+++++.OOOOOOOOOOOOOOO1.....-OOOOOO;=+++++=;OOO1=+++++&XOOOOOOOOOOOO ",
" OOOOOOOr@@@@@@@@@@2X=o4O;&+++++++++++&;O;70O<@@@@@@@@@@uOOOOOOO-+++++*OOOOOOOOOOOOOOOOO.+++++.OOOOOOOOO>+++++++++++++oOOOOOOOOOO.+++++.OOOOOOOOOOOOOOOOOOOOOOOOOOOOO-++++++3XOX&+++++=XOOOOOOOOOOOOO ",
" OOOOOOO<@@@@@@@@@i64+++==+++++++++++++=3+++-,8@@@@@@@@@eOOOOOOO-+++++*OOOOOOOOOOOOOOOOO.+++++.OOOOOOOOOO>+++++++++++oOOOOOOOOOOO.+++++3******************0XOOOOOOOOOO>++++++&Oo+++++=;OOOOOOOOOOOOOO ",
" OOOOOOO<@@@@@@@@<6OX>0+++++++++++++++++++0>XO9i@@@@@@@@<OOOOOOO-+++++*OOOOOOOOOOOOOOOOO.+++++.OOOOOOOOOOO>+++++++++oOOOOOOOOOOOOq+++++++++++++++++++++++++&XOOOOOOOOOO.++++++&++++++-OOOOOOOOOOOOOOO ",
" OOOOOOO<@@@@@@@2OOOOOOXo+++++++++++++++oXOOOOO6i@@@@@@@<OOOOOOO-+++++*OOOOOOOOOOOOOOOOO.+++++.OOOOOOOOOOOO>+++++++3OOOOOOOOOOOOOOo+++++++++++++++++++++++++&OOOOOOOOOOOo+++++++++++>OOOOOOOOOOOOOOOO ",
" OOOOOOO9e@@@@@2OOOOOOOO;+++++++++++++++;OOOOOOO6<@@@@@e9OOOOOOO-+++++*OOOOOOOOOOOOOOOOO.+++++.OOOOOOOOOOOOo++++++++oOOOOOOOOOOOOOOo+++++++++++++++++++++++++oOOOOOOOOOOO&+++++++++.OOOOOOOOOOOOOOOOO ",
" OOOOOOOXO:t@@5OOOOOOOOOO3+++++++++++++3OOOOOOOOOO2@@t:OOOOOOOOO-+++++*OOOOOOOOOOOOOOOOO.+++++.OOOOOOOOOOXo++++++++++oOOOOOOOOOOOOOOo+++++++++++++++++++++++++OOOOOOOOOOOX&+++++++oOOOOOOOOOOOOOOOOOO ",
" OOOOOOO07X6u5OOOOOOOOOOOo+++++++++++++7OOOOOOOOOOOru6X77OOOOOOO-+++++*OOOOOOOOOOOOOOOOO.+++++.OOOOOOOOOX&++++++++++++oOOOOOOOOOOOOOOOOOOOOOOOOOOOOOOOOO++++++OOOOOOOOOOOO1=+++++0OOOOOOOOOOOOOOOOOOO ",
" OOOOOOO.+.OOOOOOOOOOOOOO4+++++++++++++;OOOOOOOOOOOOOO7+.OOOOOOO-+++++*OOOOOOOOOOOOOOOOO.+++++.OOOOOOOOX&++++++0=++++++oOOOOOOOOOOOOOOOOOOOOOOOOOOOOOOOO++++++OOOOOOOOOOOOO.+++++.OOOOOOOOOOOOOOOOOOO ",
" OOOOOOO>+*OOOOOOOOOOOOOOO=+++++++++++3OOOOOOOOOOOOOOO*+4OOOOOOO-+++++*OOOOOOOOOOOOOOOOO.+++++.OOOOOOOX&++++++oO;=++++++*XOOOOOOO*+++++OOOOOOOOOOOOOOOOO++++++OOOOOOOOOOOOO.+++++.OOOOOOOOOOOOOOOOOOO ",
" OOOOOOO1+=OOOOOOOOOOOOOOOo+++++++++++7OOOOOOOOOOOOOOO++1OOOOOOO-+++++3.................*+++++.OOOOOO;3++++++oOOO;=++++++&XOOOOOO*+++++OOOOOOOOOOOOOOOOO++++++OOOOOOOOOOOOO.+++++.OOOOOOOOOOOOOOOOOOO ",
" OOOOOOOO3+;OOOOOOOOOOOOOO4+++++++++++4OOOOOOOOOOOOOO4+3OOOOOOOO-+++++++++++++++++++++++++++++.OOOOO;=++++++oOOOOO;=++++++&XOOOOO*++++++++++++++++++++++++++++OOOOOOOOOOOOO.+++++.OOOOOOOOOOOOOOOOOOO ",
" OOOOOOOOo+7OOOOOOOOOOOOOO0+++++++++++.OOOOOOOOOOOOOOo+7OOOOOOOOX&+++++++++++++++++++++++++++=;OOOO;=++++++oOOOOOOO;&++++++&XOOOO7+++++++++++++++++++++++++++oOOOOOOOOOOOOO.+++++.OOOOOOOOOOOOOOOOOOO ",
" OOOOOOOO-+=OOOOOOOOOOOOO-++-OOOOOOOq++;OOOOOOOOOOOOX=+;OOOOOOOOOX&+++++++++++++++++++++++++=;OOOO-=++++++oOOOOOOOOOX&++++++&XOOOOo+++++++++++++++++++++++++oOOOOOOOOOOOOOO.+++++.OOOOOOOOOOOOOOOOOOO ",
" OOOOOOOOO3+>OOOOOOOOOOOX3+0OOOOOOOOO*+*OOOOOOOOOOOO.+&OOOOOOOOOOOX&+++++++++++++++++++++++=;OOOO>+++++++oOOOOOOOOOOOX&++++++&XOOOOo+++++++++++++++++++++++oOOOOOOOOOOOOOOO.+++++.OOOOOOOOOOOOOOOOOOO ",
" OOOOOOOOO>+3OOOOOOOOOOOX7=XOOOOOOOOO;+7OOOOOOOOOOOX=+>OOOOOOOOOOOOOo+++++++++++++++++++++&1OOOO4+++++++oOOOOOOOOOOOOOX&++++++&XOOOOo+++++++++++++++++++++oOOOOOOOOOOOOOOOO.+++++.OOOOOOOOOOOOOOOOOOO ",
" OOOOOOOOOO3+qO,:::::::::O1OOOOOOOOOOOX6:::::::::,Oq+3OOOOOOOOOOOOOOOOOOOOOOOOOOOOOOOOOOOOOOOOOOOOOOOOOOOOOOOOOOOOOOOOOOOOOOOOOOOOOOOOOOOOOOOOOOOOOOOOOOOOOOOOOOOOOOOOOOOOOOOOOOOOOOOOOOOOOOOOOOOOOOO ",
" OOOOOOOOOO43X,@@@@@@@@@@yOOOOOOOOOOOOO5@@@@@@@@@@,X3-OOOOOOOOOOOOOOOOOOOOOOOOOOOOOOOOOOOOOOOOOOOOOOOOOOOOOOOOOOOOOOOOOOOOOOOOOOOOOOOOOOOOOOOOOOOOOOOOOOOOOOOOOOOOOOOOOOOOOOOOOOOOOOOOOOOOOOOOOOOOOOO ",
" OOOOOOOOOOO168@@@@@@@@@@2OOOOOOOOOOOOOe@@@@@@@@@@861OOOOOOOOOOOOOOOOOOOOOOOOOOOOOOOOOOOOOOOOOOOOOOOOOOOOOOOOOOOOOOOOOOOOOOOOOOOOOOOOOOOOOOOOOOOOOOOOOOOOOOOOOOOOOOOOOOOOOOOOOOOOOOOOOOOOOOOOOOOOOOOO ",
" OOOOOOOOOOOOe@@@@@@@@@@@8OOOOOOOOOOOOO8@@@@@@@@@@@eOOOOOOOOOOOOOOOOOOOOOOOOOOOOOOOOOOOOOOOOOOOOOOOOOOOOOOOOOOOOOOOOOOOOOOOOOOOOOOOOOOOOOOOOOOOOOOOOOOOOOOOOOOOOOOOOOOOOOOOOOOOOOOOOOOOOOOOOOOOOOOOOO ",
" OOOOOOOOOOOO:@@@@@@@@@@@@,OOOOOOOOOOOy@@@@@@@@@@@@,OOOOOOOOOOOOOOOOOOOOOOOOOOOOOOOOOOOOOOOOOOOOOOOOOOOOOOOOOOOOOOOOOOOOOOOOOOOOOOOOOOOOOOOOOOOOOOOOOOOOOOOOOOOOOOOOOOOOOOOOOOOOOOOOOOOOOOOOOOOOOOOOO ",
" OOOOOOOOOOOOO5@@@@@@@@@@@rOOOOOOOOOOOr@@@@@@@@@@@5OOOOOOOOOOOOOOOOOOOOOOOOOOOOOOOOOOOOOOOOOOOOOOOOOOOOOOOOOOOOOOOOOOOOOOOOOOOOOOOOOOOOOOOOOOOOOOOOOOOOOOOOOOOOOOOOOOOOOOOOOOOOOOOOOOOOOOOOOOOOOOOOOO ",
" OOOOOOOOOOOOOO5@@@@@@@@@@iOOOOOOOOOOOt@@@@@@@@@@5OOOOOOOOOOOOOOOOOOOOOOOOOOOOOOOOOOOOOOOOOOOOOOOOOOOOOOOOOOOOOOOOOOOOOOOOOOOOOOOOOOOOOOOOOOOOOOOOOOOOOOOOOOOOOOOOOOOOOOOOOOOOOOOOOOOOOOOOOOOOOOOOOOO ",
" OOOOOOOOOOOOOOO5@@@@@@@@@@9OOOOOOOOO,@@@@@@@@@85OOOOOOOOOOOOOOOOOOOOOOOOOOOOOOOOOOOOOOOOOOOOOOOOOOOOOOOOOOOOOOOOOOOOOOOOOOOOOOOOOOOOOOOOOOOOOOOOOOOOOOOOOOOOOOOOOOOOOOOOOOOOOOOOOOOOOOOOOOOOOOOOOOOO ",
" OOOOOOOOOOOOOOOO,t@@@@@@@@wOOOOOOOOOw@@@@@@@@t,OOOOOOOOOOOOOOOOOOOOOOOOOOOOOOOOOOOOOOOOOOOOOOOOOOOOOOOOOOOOOOOOOOOOOOOOOOOOOOOOOOOOOOOOOOOOOOOOOOOOOOOOOOOOOOOOOOOOOOOOOOOOOOOOOOOOOOOOOOOOOOOOOOOOO ",
" OOOOOOOOOOOOOOOOO6r@@@@@@@2OOOOOOOOO2@@@@@@@r6OOOOOOOOOOOOOOOOOOOOOOOOOOOOOOOOOOOOOOOOOOOOOOOOOOOOOOOOOOOOOOOOOOOOOOOOOOOOOOOOOOOOOOOOOOOOOOOOOOOOOOOOOOOOOOOOOOOOOOOOOOOOOOOOOOOOOOOOOOOOOOOOOOOOOO ",
" OOOOOOOOOOOOOOOOOOO:<@@@@@,OOOOOOOOO,@@@@@<,OOOOOOOOOOOOOOOOOOOOOOOOOOOOOOOOOOOOOOOOOOOOOOOOOOOOOOOOOOOOOOOOOOOOOOOOOOOOOOOOOOOOOOOOOOOOOOOOOOOOOOOOOOOOOOOOOOOOOOOOOOOOOOOOOOOOOOOOOOOOOOOOOOOOOOOO ",
" OOOOOOOOOOOOOOOOOOOOO:2@@<Oo&*****3oO<@@2:OOOOOOOOOOOOOOOOOOOOOOOOOOOOOOOOOOOOOOOOOOOOOOOOOOOOOOOOOOOOOOOOOOOOOOOOOOOOOOOOOOOOOOOOOOOOOOOOOOOOOOOOOOOOOOOOOOOOOOOOOOOOOOOOOOOOOOOOOOOOOOOOOOOOOOOOOO ",
" OOOOOOOOOOOOOOOOOOOOOOO65,1+++++++++1,56OOOOOOOOOOOOOOOOOOOOOOOOOOOOOOOOOOOOOOOOOOOOOOOOOOOOOOOOOOOOOOOOOOOOOOOOOOOOOOOOOOOOOOOOOOOOOOOOOOOOOOOOOOOOOOOOOOOOOOOOOOOOOOOOOOOOOOOOOOOOOOOOOOOOOOOOOOOO ",
" OOOOOOOOOOOOOOOOOOOOOOOOOOOO-------OOOOOOOOOOOOOOOOOOOOOOOOOOOOOOOOOOOOOOOOOOOOOOOOOOOOOOOOOOOOOOOOOOOOOOOOOOOOOOOOOOOOOOOOOOOOOOOOOOOOOOOOOOOOOOOOOOOOOOOOOOOOOOOOOOOOOOOOOOOOOOOOOOOOOOOOOOOOOOOOO ",
" OOOOOOOOOOOOOOOOOOOOOOOOOOOOOOOOOOOOOOOOOOOOOOOOOOOOOOOOOOOOOOOOOOOOOOOOOOOOOOOOOOOOOOOOOOOOOOOOOOOOOOOOOOOOOOOOOOOOOOOOOOOOOOOOOOOOOOOOOOOOOOOOOOOOOOOOOOOOOOOOOOOOOOOOOOOOOOOOOOOOOOOOOOOOOOOOOOOO ",
" OOOOOOOOOOOOOOOOOOOOOOOOOOOOOOOOOOOOOOOOOOOOOOOOOOOOOOOOOOOOOOOOOOOOOOOOOOOOOOOOOOOOOOOOOOOOOOOOOOOOOOOOOOOOOOOOOOOOOOOOOOOOOOOOOOOOOOOOOOOOOOOOOOOOOOOOOOOOOOOOOOOOOOOOOOOOOOOOOOOOOOOOOOOOOOOOOOOO ",
" OOOOOOOOOOOOOOOOOOOOOOOOOOOOOOOOOOOOOOOOOOOOOOOOOOOOOOOOOOOOOOOOOOOOOOOOOOOOOOOOOOOOOOOOOOOOOOOOOOOOOOOOOOOOOOOOOOOOOOOOOOOOOOOOOOOOOOOOOOOOOOOOOOOOOOOOOOOOOOOOOOOOOOOOOOOOOOOOOOOOOOOOOOOOOOOOOOOO ",
" OOOOOOOOOOOOOOOOOOOOOOOOOOOOOOOOOOOOOOOOOOOOOOOOOOOOOOOOOOOOOOOOOOOOOOOOOOOOOOOOOOOOOOOOOOOOOOOOOOOOOOOOOOOOOOOOOOOOOOOOOOOOOOOOOOOOOOOOOOOOOOOOOOOOOOOOOOOOOOOOOOOOOOOOOOOOOOOOOOOOOOOOOOOOOOOOOOOO ",
" OOOOOOOOOOOOOOOOOOOOOOOOOOOOOOOOOOOOOOOOOOOOOOOOOOOOOOOOOOOOOOOOOOOOOOOOOOOOOOOOOOOOOOOOOOOOOOOOOOOOOOOOOOOOOOOOOOOOOOOOOOOOOOOOOOOOOOOOOOOOOOOOOOOOOOOOOOOOOOOOOOOOOOOOOOOOOOOOOOOOOOOOOOOOOOOOOOOO ",
" OOOOOOOOOOOOOOOOOOOOOOOOOOOOOOOOOOOOOOOOOOOOOOOOOOOOOOOOOOOOOOOOOOOOOOOOOOOOOOOOOOOOOOOOOOOOOOOOOOOOOOOOOOOOOOOOOOOOOOOOOOOOOOOOOOOOOOOOOOOOOOOOOOOOOOOOOOOOOOOOOOOOOOOOOOOOOOOOOOOOOOOOOOOOOOOOOOOO ",
"$####################################################################################################################################################################################################$"
};
