/* XPM */
static const char *team_graphic_xpm[] = {
/* columns rows colors chars-per-pixel */
"256 64 63 1",
". c None",
"a c #163981",
"b c #0F3988",
"c c #0C3A94",
"d c #0C378D",
"e c #093B9D",
"f c #0A3788",
"g c #083EA4",
"h c #073C98",
"i c #083895",
"j c #073786",
"k c #063FA3",
"l c #053BA1",
"m c #063C97",
"n c #053993",
"o c #063795",
"p c #05378F",
"q c #053788",
"r c #0340A3",
"s c #023EA0",
"t c #033DA0",
"u c #023B9F",
"v c #03399E",
"w c #023C98",
"x c #023C90",
"y c #023A92",
"z c #023995",
"A c #02398B",
"B c #023797",
"C c #033792",
"D c #033790",
"E c #013790",
"F c #03378D",
"G c #01378D",
"H c #023786",
"I c #12348D",
"J c #0C348D",
"K c #13337C",
"L c #0D347F",
"M c #083492",
"N c #08348B",
"O c #083487",
"P c #08347B",
"Q c #16307E",
"R c #102F80",
"S c #1D2874",
"T c #112A79",
"U c #09308A",
"V c #09307B",
"W c #0A2D80",
"X c #0A2478",
"Y c #053492",
"Z c #05348D",
"0 c #013490",
"1 c #053489",
"2 c #023489",
"3 c #033485",
"4 c #02347D",
"5 c #03318F",
"6 c #043188",
"7 c #023080",
"8 c #032D7D",
"9 c #01257C",
/* pixels */
"................................................................................................................................................................................................................................................................",
"................................................................................................................................................................................................................................................................",
"................................................................................................................................................................................................................................................................",
"................................................................................................................................................................................................................................................................",
"................................................................................................................................................................................................................................................................",
".................................................K..............................................................................................................................................................................................................",
"................................................Vi4.............................................................................................................................................................................................................",
"................................................ds1.............................................................................................................................................................................................................",
"...............................................Pyhc4............................................................................................................................................................................................................",
"...............................................Tiwe8............................................................................................................................................................................................................",
"............................................PfcZomJIp28.........................................................................................................................................................................................................",
"............................................OstexwyeeuN.........................................................................................................................................................................................................",
"............................................UBoCyzixFB1.........................................................................................................................................................................................................",
"............................................40T.ft1.TYF.........................................................................................................................................................................................................",
"............................................8X..drN..V6.........................................................................................................................................................................................................",
"...............................................aO6RL............................................................................................................................................................................................................",
"................................................X.6.........................................W78V8............................................................................XXX.............XXXX...............................................................",
".............................................136U56IFL...................................X7FBuuvFMK.........................................................................5BYoW...........K6Y0Y...............................................................",
"........................TV.................MpZ66...6HpiP................XV..............K1sC72250vn4........................................................................csouF...........4uCzn...............................................................",
".........................J3..............KFrNS.......8xkI..............Qd4.............RMw39.....WGkO.......................................................................cspDpT..........HBEYo...............................................................",
".........................OrI............SpkO...........zkJ............SMvP.............Nu3........XDvU......................................................................MrpqgI.........Vip4Bn...............................................................",
".........................2yiP..........SqkIS...........X2tN...........IlA.............RlG..........4vY......................................................................ZgA2rd.........6gNPwo...............................................................",
".........................WdwpS.........fscR.............RYwR.........Lhh1.............Ow6...........3wV.....................................................................MgA8wDS........pg7Pwo...............................................................",
"..........................Amef........Wnlf...............6zNV.......VpehO............Rv6............ZlU..RP........PbQ.....IDyoCjS........RdDyodS....KbP..IIDBpOS...........Ggp.0uO.......8ncXPhi.....3DDFBMK....LP..4MyjSLK.........PaS........................",
"..........................2thf........NthL...............3zeO.......NtnMX............qr3............6yD..MF........3lL...SJgMpdZriT......PeiqqZgi3...KgZ.JhCNZFsdK..........Ckq.2sM.......3sZ.Pei...SNtYpMpBkb..Xop.6wllj.YhK.......VBMS........................",
"..........................JeemL......SAuiP...............JCef.......YwhI.............CkH............XAz9.pC........6uF...Jw3S...2ziI....frYT...7BsR..KtBZsZX..X2rN..........0kq.4yC.......Eg3.Pti...pwMX...8DgK.8GoPlG7U7.5sF.......Hr6.........................",
"..........................LohwI......Knwd.................2eDV......phtf.............oeH.............DgR.pM........7uM..fkP......VtO...Ol2......PoJ..Pcnh4......2nK.........YrF..5wV.....6oxV.Phi..6lO......XwN.8GiiZ.....RBN.......pBQ.........................",
"...........................pwsI......Oehc.................pgzK......pew4.............MiV.............zkK.BD........3t1.WAZ........HyP..HyT.......1sR.Ley3.......NgW.........YkA..Zu6.....7gA..Pho..6W........yp.9CsDX......2vW.....Io2..........................",
"...........................OuhU.LMT..NgwM.................Mhha..IJT.JwpV............X0MT.............nkK.CD........2lZ.pgL........JkH.Ll1........WtJ.akZ........cg7.........NgF..Rep.....Jr4..Pho............yd.7pt1.......GgO.....3r6..........................",
"...........................btdSMwwv7.6wsd.................phnK.jluBRIrM.............90CV.............DgK.FF........0lH.0gQ........Tv3.FrP.........ZC.KkN........dg7.........NgF...DhU....peU..Pho.........VIfxc.8pCX.......7oZ.....1nP..........................",
"...........................QhGGwncB2.3mwd.................2wyXIwinycMwI..............Fw4.............ngP.CE........5lH.2wjIbaLfffjqwj.HspLLfffffILCE.KkN........dg7.........1gF...jt2...LgM...Phi.....VJYCwvoyd.9YC.........2vL...Wo1...........................",
"............................FwBweeyhU4MmdS...............IZvo.MulkeyyhL..............1tH.............Cv8.Dy........6sp.2uCCACGEGEEDyj.FuCCGEGGGEzCBF.KkN........dg3.........1gF...RzN...prj...Phi...KMDsCZZ5Xip.9YF.........2t3...At6...........................",
"............................AecdpyMi0.pneI...............LCeZIeAAxGChiT..............Zs3............8GpQ.Do........0rf.Do8.4.......44.pt2.5.......82.KkN........dg6.........1gF....FhR..phQ...Khz..W2r038....nF.90G.........RCF...GBU...........................",
"............................JwA.P3.P7.jynf...............JvvK21....Vpd...............Uv3......9OO...3v1.9CC........0rj.2eK............3r1............KeN........dg6.........NgZ....ZgU.OtZ....Keo.PMvU.......zF.90G..........ZvP.VB5............................",
"............................f6.IO3NW...DzpR.............UYyj.P.YZ76WQj...............RYC8.....9luj..2gR.QCE........2tN.EgI............1sR............KhF........dg6.........NgF....RBN.orO....Ktn.2sM.......8zF.90E..........IeH.GlU............................",
"..............................Ap.xzwO..2im4..PiCCiVS....MuMR..pr3.02..................Os3......5ZkZRCqK.SME9.......4kd.MgO.........S..TFZ.........S..Kwq........dg6.........1gq.....0oQzvR....Psc.1sM........E2.9ED..........SY2.BpK............................",
"..............................nA.EMpH...IeeL3CMpEskppN.IecP...jkI.ahZ.................TFvT......TcwMe4...ozV......SAlb.VpzK.......TpN..Yw4........F1.asN........pg6.........1gF.....qv5yp.....Pwi.CrI.......WBH.90G...........EE3e2.............................",
".............................TmN..QQ.....LcrH....7ZMtwFhhV....KfT.agd..................WvpW......LceN....0lW.....Tnozj..brFS......ZrL..OuiS......Ur3.Psp........Mg7.........3rH.....WCyeJ.....Kmz.ZrV......3oud.9DC...........HiCtf.............................",
".............................SNBV.....3BqSbcwpO.....fegwnBNK......Rrj...................PBvZ25972zhw1....Vzp6X.QYwJ7BA...1rNO4..Vqs6....IgZ3V..RprN..KeN........Jg7.........ZgZ.....TZicP.....acc.8CBWX.VZMg1FI.90M...........QMzHK.............................",
"..............................RgG4UUNxGll6..OAMJGZO1FFNOZvgnpF4SVqCzL....................6GvrwBvl12Dz7....PyrpFmtA.Pt1....MzrxpIezO......ICkcdFtt2...Pr3........Hr6.........2rF......jrA......IkF..UCsqdwrpJ.2BS9BH............qk3..............................",
"...............................JurrlggM3UU....6N24OJU....W1DggnMyrBN.......................V3AGNOW.VpuJNR..72MMj8..Iz3.....VLCYp36........RUJMpN8....3v4........Wo7.........ZvE......8v7......LCH...81pHqJ...UMS.U6............qr6..............................",
"................................UMpqOOW.....................6OcoCZ5.................................VOMlR......................................................................................................................MC5..............................",
".................................PKIILfaLbaaLIjjjjjLLLfOPPLbbaaPPK....................................TTT.....................................................................................................................Rl2...............................",
"...............................IoyhhnnhixziozzzhhhhhinCEECnnzwwyhinK.........................................................................................................................................................90B3...............................",
"...............................IlzmyzzwulhnzwDpZppZpCDzzBuswhezxhzgK.....................................................................................................................................................H725Br3................................",
"................................RCFCvMOOIIb6HLK.....Pbc5OfnZObnEpiJ......................................................................................................................................................7DtlC3.................................",
"..........................................................................................................................................................................................................................TKKV..................................",
".....................................................................................WIP..WJj......7ef......................ZvP....................QMEV...3ZW...................IIV.............................................................................",
".....................................................................................7l3..2gH......80H......................P68PCE.................3sZW...4r3...................Fkj.............................................................................",
".....................................................................................7wZ..0eRU3.LW..g.Pc..II..bI...d.TS.QJT..2.XeN.bI..Pc.....baR..DvK....HlU....TbP..Td.KL...fMAwZ.TII..8c.Kb..................................................................",
".....................................................................................6w1..GgIpx6Zw88gjolj.pqTzhtqVbz0oPUehCVZujcyoIPw2.nFS...Pteh3acnoU...As7...PngsL.NwN1kJ.Ns7ZeI3BttL.6wF3k3.................................................................",
".....................................................................................7v1..0g4Ms66v5VgfIr37t1phQHgNau56bw2VoUIgjIwYJPwG.BF...PeZbCfSovp8...br3...zCLDrJJsN60pXBEXAeIGCq0sL7uZ8Bp.................................................................",
".....................................................................................7v1..2g8cg.av5Ugd.hPMgQxyGplOLgU.KpiI..xrU.zD..YYWlf...6gI.5eaiga....fs3..HE0.agiHrj.ZCEkf.dkUGb.6uq6gc.pn.................................................................",
".....................................................................................7v1..GgWchPbw55gj.Cp2yPnlzyw3LgL..RzedSdrUSeF..v2ZeK...2sf.psEnsb....Gt7..XAG.agq3gL.0FHki.beM2b.5kf5gI.iA.................................................................",
".....................................................................................7vU..0gRcsWAw56rf.phxF.ipQTTTLsP...X2sOcr3Smq..qMoA....6lb.ZtHneb....ytX...Y0.IgGfg4.5D4rY.jeI0j.6gI6rP.AH.................................................................",
".....................................................................................PEo86xeSekROl0UlL.PxvJ.Iv.7u6Qg4.8MU.BYbt3SyN..SJuf....LgYPBi.ceL....ywZC0TzoSHrLIk4.ZG8uH.GeIFDV0gT7rb.Gf.................................................................",
"......................................................................................4uvltP.prQbg2WrL.aplK.KhBBiTQg2..1vogRcg4.1rq..CsL....adlisL.jrI....irskrTPtiwJSfgR.FZ.YsUCmLRlplJS7gI.pM.................................................................",
".......................................................................................NG2J..ap..o48wO..N0...Pq0V.Lu6...HZf.eeV.4oU..ZwY.....SIIb..PoI....3BEfDP.HMIS.fhQ.2M.RzOhz..3NJX.8BI.1U.................................................................",
"...................................................................................................................................7CeI.........................................................................................................................",
"...................................................................................................................................7CFQ.........................................................................................................................",
"................................................................................................................................................................................................................................................................",
"................................................................................................................................................................................................................................................................",
"................................................................................................................................................................................................................................................................",
"................................................................................................................................................................................................................................................................"
};
