/* XPM */
static char *_aaf4395f37b4e2bc0eceb90bf98662eEU1xOJB5eoo9GRw4[] = {
/* columns rows colors chars-per-pixel */
"278 298 175 2 ",
"   c None",
".  c #014F6E",
"X  c #00506F",
"o  c #014F72",
"O  c #004F78",
"+  c #005072",
"@  c #0A5675",
"#  c #0C5975",
"$  c #045478",
"%  c #0B5679",
"&  c #0D5A7A",
"*  c #105675",
"=  c #105A77",
"-  c #195C77",
";  c #115B7B",
":  c #1A5E7D",
">  c #15607E",
",  c #1A627E",
"<  c #21617D",
"1  c #2C657F",
"2  c #145D80",
"3  c #185F80",
"4  c #166282",
"5  c #1C6482",
"6  c #206583",
"7  c #286787",
"8  c #256985",
"9  c #2A6C86",
"0  c #256A8A",
"q  c #2D6E8B",
"w  c #306E8B",
"e  c #2D708B",
"r  c #32728D",
"t  c #3C758D",
"y  c #3E7A8E",
"u  c #2A7090",
"i  c #367591",
"p  c #3B7692",
"a  c #377994",
"s  c #3C7993",
"d  c #3B7999",
"f  c #015CB6",
"g  c #005CB9",
"h  c #0C62B6",
"j  c #0C64BC",
"k  c #0D68BB",
"l  c #1E67B4",
"z  c #1065BB",
"x  c #1967B9",
"c  c #1668B9",
"v  c #1C6DBD",
"b  c #1E70BE",
"n  c #256EBC",
"m  c #2270BE",
"M  c #2B74BC",
"N  c #367CBE",
"B  c #387ABC",
"V  c #41768C",
"C  c #43798F",
"Z  c #4F7D8D",
"A  c #457F97",
"S  c #437B93",
"D  c #4B7E93",
"F  c #507D92",
"G  c #1166C0",
"H  c #1E6FC2",
"J  c #1D6FC1",
"K  c #1E70C2",
"L  c #1D70C1",
"P  c #206FC1",
"I  c #206FC1",
"U  c #2070C3",
"Y  c #2070C2",
"T  c #2C7AC3",
"R  c #3079C1",
"E  c #327CC4",
"W  c #347CC4",
"Q  c #387CC2",
"!  c #428094",
"~  c #4A8296",
"^  c #47829A",
"/  c #4F8299",
"(  c #49849A",
")  c #4D839B",
"_  c #4F899E",
"`  c #548497",
"'  c #578699",
"]  c #53849B",
"[  c #5B869E",
"{  c #578C9F",
"}  c #548A9E",
"|  c #5B8A9E",
" . c #598C9F",
".. c #5B8B9E",
"X. c #578AA1",
"o. c #558EA2",
"O. c #568AA5",
"+. c #578CA4",
"@. c #568CA2",
"#. c #5B8AA3",
"$. c #5A8AA2",
"%. c #5A8BA2",
"&. c #558EA9",
"*. c #5F8EA8",
"=. c #5D90A5",
"-. c #4080BF",
";. c #5384B5",
":. c #3781C7",
">. c #3E80C1",
",. c #3A80C6",
"<. c #3D82C7",
"1. c #3C81C6",
"2. c #3D80CA",
"3. c #3D82CD",
"4. c #3C82CA",
"5. c #26A7DE",
"6. c #28A7DF",
"7. c #26A9DF",
"8. c #29A9DE",
"9. c #30A6DF",
"0. c #39A7DC",
"q. c #30AADE",
"w. c #3CAEDF",
"e. c #26A7E2",
"r. c #29A7E1",
"t. c #26A9E1",
"y. c #28A9E2",
"u. c #33ADE2",
"i. c #3AADE0",
"p. c #34ADE8",
"a. c #30B0E3",
"s. c #3EB3E4",
"d. c #3EB5E8",
"f. c #4080C1",
"g. c #4585C6",
"h. c #4484C4",
"j. c #4987C7",
"k. c #4787C8",
"l. c #498ACA",
"z. c #4D8BCB",
"x. c #5086C3",
"c. c #558CC5",
"v. c #518ECD",
"b. c #5793CE",
"n. c #5693CE",
"m. c #5A90CD",
"M. c #5B94CD",
"N. c #5B92CE",
"B. c #5293D3",
"V. c #5593D1",
"C. c #5593D3",
"Z. c #5793D2",
"A. c #5793D4",
"S. c #5693D2",
"D. c #5993D0",
"F. c #5992D2",
"G. c #45AFDB",
"H. c #45B0DE",
"J. c #4CB1DE",
"K. c #5AB5DC",
"L. c #5AB8DD",
"P. c #46AFE0",
"I. c #41B3E4",
"U. c #4BB5E3",
"Y. c #52B6E4",
"T. c #5DB6E0",
"R. c #56BAE6",
"E. c #5CBAE3",
"W. c #54BBEA",
"Q. c #5ABBEA",
"!. c #87AEBD",
"~. c #96B1BC",
"^. c #AEC2CB",
"/. c #AAC6D0",
"(. c #B1C7D4",
/* pixels */
"                                                                                                                                                                                                                                                                                                                                                                                                                                                                                                                                                                            ",
"                                                                                                                                                                                                                                                                                                                                                                                                                                                                                                                                                                            ",
"                                                                                                                                                                                                                                                                                                                                                                                                                                                                                                                                                                            ",
"                                                                                                                                                                                                                                                                                                                                                                                                                                                                                                                                                                            ",
"                                                                                                                                                                                                                                                                                                                                                                                                                                                                                                                                                                            ",
"                                                                                                                                                                                                                                                                                                                                                                                                                                                                                                                                                                            ",
"                                                                                                                                                                                                                                                                                                                                                                                                                                                                                                                                                                            ",
"                                                                                                                                                                                                                                                                                                                                                                                                                                                                                                                                                                            ",
"                                                                                                                                                                                                                                                                                                                                                                                                                                                                                                                                                                            ",
"                                                                                                                                                                                                                                                                                                                                                                                                                                                                                                                                                                            ",
"                                                                                                                                                                                                                                                                                                                                                                                                                                                                                                                                                                            ",
"                                                                                                                                                                                                                                                                                                                              $.&.. + + o + + + + + + + o + + + o & @.|                                                                                                                                                                                                     ",
"                                                                                                                                                                                                                                                                                                                { ; + + + + + X + + + + o + + + + + + + o o + + + + + + + + + + + ; @.                                                                                                                                                                                      ",
"                                                                                                                                                                                                                                                                                                        = + + + + o + + + o + + + + + + + + + + + + o + o + + + + o + + + o + o o o + o + + . +.                                                                                                                                                                            ",
"                                                                                                                                                                                                                                                                                                ; o + + + o + . X + o + o o + + + + + + + + + + + + + + + + o + + + + + + + + + o + + o + + o + + + + @.                                                                                                                                                                    ",
"                                                                                                                                                                                                                                                                                        y + + X + o o + o + o + + + + o + o + + + o + + + + + + + + + + o + + + o + + + o + + + o + + + o + + + + + + o o + 6                                                                                                                                                               ",
"                                                                                                                                                                                                                                                                                  6 + + + + + o + X o + + + + + + + o + + o + + + + + + + + + + o + + + + + + o + + + + + + o + + + o + + + o + + + + + + + + + o &                                                                                                                                                         ",
"                                                                                                                                                                                                                                                                              . + o + + + + + + + + o o + + + + + X + + + + + + + + o + + o + + + + + + + + + + + + + o + + + + + + o o + + + o + + + + o + + + o + + o 5                                                                                                                                                   ",
"                                                                                                                                                                                                                                                                        ; + o + + + + + + + + + + + o + + o + + + + + + o + X + + + o o + + + + + o + . o + o + + + o + + o + + + + X + + + o + + + o o + o + + + o + + + o +                                                                                                                                               ",
"                                                                                                                                                                                                                                                                    + o + + + + + + + + + + + + + + + + + + + + o + o + + + + + + + + + + + + o + + + + + o + + o + + + + + + o o + + o o o + o + + o + o + o o o + o + o X + + + 6                                                                                                                                         ",
"                                                                                                                                                                                                                                                              _ o + + + + o o + + + + + + + + + + + o o + o o X + o + + . + + o + + + + o + o + + o + o o + + o + o o + o + + + + + + + + + + + + + o + + + + + + + + + + + o + + + X 5                                                                                                                                     ",
"                                                                                                                                                                                                                                                          8 o + o + o + + o + + + o + + + + + + + + + X X + o o + + o + + X + + + + + o o + X p t t t p t   Z 1 t t V p 8 . + + + X + + o + + o o + + + o + + + o + + o o + + + o X o o + @                                                                                                                                 ",
"                                                                                                                                                                                                                                                      < + + + + o + o + o + o + + + + + + + + + + + + + + o + + o + + o + o ) (                                                         A ; o + + + + + + + + + o + o o + o X + + + + o + + + #                                                                                                                             ",
"                                                                                                                                                                                                                                                    o + + o + + + + + + + o + + + o + + + + + + + + + o o + o o X O.                                                                                d . + o + X + + + + + + X + + o + + + + o + . 5                                                                                                                         ",
"                                                                                                                                                                                                                                                + + + + o + X + + + o + o + o o + + + + + + + + + + + o &                                                                                                   s + o + + + + o X + o + + + + o + o + + + ..                                                                                                                    ",
"                                                                                                                                                                                                                                            & + + o + + + + + + + + o + + + + o + . + + o X + o + s                                                                                                                 ; + + + + + + + + + + + + + + + + X +                                                                                                                   ",
"                                                                                                                                                                                                                                        $.o X + X + + + + o o + o + + X o o + + + + + . + +                                                                                                                               6 o + + X + X + o + o + o o + X o 5                                                                                                               ",
"                                                                                                                                                                                                                                      ; + + + + + + + + + o + o + + o X + + + + + + o s                                                                                                                                         & o + o + + + X + + + + o + + o                                                                                                             ",
"                                                                                                                                                                                                                                    + o + + + o X + + o o + X + o + + o + . + + @                                                                                                                                                     + X + + + + + + o + + + + o &                                                                                                         ",
"                                                                                                                                                                                                                                & + + + + o + + + + + + + o o o + + + + + + O.                                                                                                                                                            @ + + o + + X + o + + + + o                                                                                                       ",
"                                                                                                                                                                                                                              . + o + o + + X + + + + X X + + o + + + + @.                                                                                                                                                                    5 + + o + o o + o X + X + s                                                                                                   ",
"                                                                                                                                                                                                                          s o + + X o + X + + + + X + o + X + + o +                                                                                                                                                                               $.+ + + + + o + + + + + ;                                                                                                 ",
"                                                                                                                                                                                                                        ; o . + o + + + + + + + + + + + + + + o                                                                 A.M g f g f g g g f f g g g f f g g f f f g g Z.D.                                                                    5 + + o + o o o X + o +                                                                                               ",
"                                                                                                                                                                                                                      o + X + + + + + o X o + + o + + + X +                                                         Z.g f g f g g f f g g g f f g g g g g g g g g f g g f g g f f g f f f L                                                               6 o + + + + o o + + +                                                                                             ",
"                                                                                                                                                                                                                    o + X + + + + o + + + o + + + X + o p                                                   ,.f f f f g g g <.b.B.g.l.N.Z.I g g f g f f g f f f g f g g g f f g g f g f g f f g g f 3.                                                        ; o o + + + + + o o p                                                                                         ",
"                                                                                                                                                                                                                r o + X o o + + + + + X + + + o o + @                                                                                                       M.B j g f f f g g g f g g f f f g g g g f g f j                                                       + o o + o + + + + &                                                                                       ",
"                                                                                                                                                                                                              9 o X X + o o + o + o o X o + + o +                                                                                                                       x.h g f g f f f f g f f g g f g f g g g f >.                                                : + o + o + + + + @                                                                                     ",
"                                                                                                                                                                                                            i + + + + + + + + + + + X + o + + r                                                                                                                                   Q g g g g g g g f f g g g f f g f g g                                                 + o + o + + o o o                                                                                   ",
"                                                                                                                                                                                                          ; + o + o + + + o + + + + + + + +                                                                                                                                               g f g f g g g g f g g g g g f g g j                                             s + X X o + X o +                                                                                 ",
"                                                                                                                                                                                                        ; + X o + + + + + + + + + + + + 5                                                                                                                                                       j g f g g g g g f f f f f f g g f                                             + + + o + + o +                                                                               ",
"                                                                                                                                                                                                      ; + + + + + o + o + o + + + o +                                                                                                                                                                 g f f g g f f f g g f f g f f g D.                                        6 + o + + + + +                                                                             ",
"                                                                                                                                                                                                    & + + o + + + + + o o + + + + &                                                                                                                                                                       Y g f g g f g f g f g g g f f g f.                                        + + + + + o +                                                                           ",
"                                                                                                                                                                                                  : + o + + + o + + + + o + X o s                                                                                                                                                                             l.f g g f g f f f f g g g g g g Z.                                      + o o + + X +                                                                         ",
"                                                                                                                                                                                                s + + + o + + + + o + o + + o $.                                                                                                                                                                                    f f f g f f f g f f f f f g f                                       ; + + + + + ;                                                                       ",
"                                                                                                                                        G                                                     s + + o + + + o + + + + + + +                                                                                                                                                                                             g f g f g g f f g g f g f g z                                     p + + + + + ;                                                                     ",
"                                                                                                                                    g g Z.                                                    o + + + + + o + o + + + + &                                                                                                                                                                                                 Z.g g g g g g g f g g f g g g 4.                                    + o + + + d                                                                   ",
"                                                                                                                                g f z                                                       + o + + + o + + o + + o o =                                                                                                                                                                                                       4.f f f g g f f f g g g f f g                                     + + X + X O.                                                                ",
"                                                                                                                            f f g                                                         o + + + + + + + + + + o o &                                                                                                                                                                                                             j f f f g f f g f g g g f f H                                   o + o + +                                                                 ",
"                                                                                                                        g g f H                                                         ; + + o + + + + o + + o o 5                                                                                                                                                                                                                   g g g f g g g f g g g f g f                                   + + + + +                                                               ",
"                                                                                                                    z f g g                                                           s + + + + + + + o + + + o s                                                                                                                                                                                                                       3.g f g f g g g f g f f g f R                                 X o + + o                                                             ",
"                                                                                                                E g g g j                                                             X + + + + o + + o + + + w                                                                                                                                                                                                                             g f f g f g f g g g f g g j                                 + o + + 5                                                           ",
"                                                                                                              g g f g l                                                             . + o + + + + + o o + o 9                                                                                                                                                                                                                                 x g f f g g f f f g g g g f                                 + X + + ]                                                         ",
"                                                                                                          ,.g f f g                                                               + + + + o + + + + + X + p                                                                                                                                                                                                                                       f f g f g g g g f f f g g                                 X + o +                                                         ",
"                                                                                                        g f g g j                                                               s + + + + + + o . + + o &                                                                                                                                                                                                                                           g g f g g f f g g f f f f 4.                              o o o ;                                                       ",
"                                                                                                    D.f f f f z                                                                 o + + o o o + + + o + ;                                                                                                                                                                                                                                               k g f g g f f g f g g g f I                               + + + A                                                     ",
"                                                                                                  z f g g f 3.                                                                X + X + + + o + + + + +                                                                                                                                                                                                                                                   :.g g f g g f g g g g g f z                               + + o                                                     ",
"                                                                                                g f g f f Z.                                                                O.o o + + o + + + o + o                                                                                                                                                                                                                                                         g g g f g f f g g f g g z                             s o + &                                                   ",
"                                                                                              g g g g g                                                                     + o + + + + o + + X o                                                                                                                                                                                                                                                             f f g g g f g g g f f g z                             6 X + @.                                                ",
"                                                                                          4.g f f f g                                                                     % + + + X + + X + o o                                                                                                                                                                                                                                                                 f g g f g g f g f g g g f                             % + +                                                 ",
"                                                                                        b g f g g g                                                                     ] + + + o o o o X o + s                                                                                                                                                                                                                                                                   g f g g g f f g g f g f j                             + X 6                                               ",
"                                                                                      j f g g g f                                                                       + + + o o X o + + + ;                                                                                                                                                                                                       t.t.u.                                                          j f g f f g f g f g g f z                             + +                                               ",
"                                                                                    z f g f g f                                                                       @.+ + o X o + + X o +                                                                                                                                                                                                             I.t.t.t.                                                      f g g g g g g f f g g g j                           s X ;                                             ",
"                                                                                  z g f g g f                                                                         + + + o + X + o o +                                                                       ..s + o o + o + + + + + o + + + + + o 6 O.                                                                                                    t.y.7.t.                                                  f f g g f f f f f g f g v                           ; +                                             ",
"                                                                                f f f g f f g.                                                                      6 X o o + + . + + + s                                                             t & + + + o o X X o + + + o + + o + o o o + + + o + X o + X O.                                                                                            L.t.y.t.t.I.                                              g f g g g f f g f g g f 4.                          o +                                           ",
"                                                                              g f g f g f 2.                                                                        + + o o + + + + + +                                                         = o o + + o o + + + + o + o o + + + o + + + + + o o o + + + o + o + + + =                                                                                           R.t.t.t.t.I.                                            g f g g g g f g f g g f                             +                                           ",
"                                                                            g f g g g g h                                                                         6 + + + X + + + o X                                                     ; + X + + + + + + + o + + + + + + + + + + + + + + + + + + + + + + + + + + + + X o o =                                                                                         p.t.7.y.t.u.                                          g f g g f g f g g g f g                           & o                                         ",
"                                                                          z g f f f f j                                                                           + + + + + + + + + 5                                               5 + X + + + o + + + o + o o o + + + + + + + + + + + + + + + + + + + + + + + + + + + o o + + + o 5                                                                                       y.t.y.t.t.Y.                                        g f g f f f f f f f f f                           +                                         ",
"                                                                        h g g g g g f                                                                           # + o + + + + + + +                                             @ X + + o o + + + + + o + + + + X X + + + + + + + + + + + + + + + + + + + + + + + + + + + + + + o + + + #                                                                                     H.7.t.t.y.t.                                      <.g f g g g g f g g g f j                         p +                                       ",
"                                                                      W g g g f g f                                                                             + + + + o X + . +                                           o + + o X + + + o o + + 5 < + + o + + + + + + + + + + + + + + + + + + + + + + + + + + + + + + + + o + + + + + + +                                                                                     y.t.y.7.y.u.                                    v g f f f g g g g f g g N                                                                 ",
"                                                                    b.f g g g f f 2.                                                                          s o o + X + o + + &                                       & o X + o + + + + o + O.        + + + + + o + + + + + + + + + + + + + + + + + + + + + + + + + + + + + + + + o o X o o + &                                                                                   u.t.y.t.t.t.                                    k g g g f f g f g g g g                                                                 ",
"                                                                    f g f g g g j                                                                             o + o o X o X o +                                     ; o + + + + + o + + s             : + o + + X o + + + + + + + + + + + + + + + + + + + + + + + + + o + + + o + + + + + o X o O + &                                                                                 W.y.t.y.t.t.I.                                  f g g f g f f g f g f g                                                               ",
"                                                                  f f g g g f g                                                                               o X + + o + o + O.                                s + o + + + + + o +                   o + o + + + + + + + + + + + + + + + + + + + + + + + + + + + + o + + o o + o o X o + + + X + o + + $.                                                                                y.t.7.t.6.t.                                  g f f g f f f g f g g H                                                             ",
"                                                                f g f f f g f                                                                               o + X o o o + + +                                 ; + + + o + o + @                       + o + X o + + + + + + + + + + + + + + + + + + + + + + + + + + + + o o o + + + o + + + o X + o o + + +                                                                                 t.y.t.t.8.t.                                H g f f g f g g g g f f                                                             ",
"                                                              Y g g g f f g L                                                                               + + o + + + o + O.                            %.+ o + + o + + &                           X + + + X + o + + + + + + + + + + + + + + + + + + + + + + + + + + + + + + + + + o + + + o + + o o + X + S                                                                               t.t.t.t.t.t.                                g g g g g g f g g f f g                                                           ",
"                                                              g f f g f g f                                                                               ; o + o X + . + +                             & + + o + o + +                             p + + + + + + o + + + + + + + + + + + + + + + + + + + + + + + + + + + + + + + + o + o + + + . o + + + o o o ;                                                                               u.6.t.7.y.7.W.                              g g g f f f g f f f g I                                                         ",
"                                                            f g f f f g g                                                                                 + + X o + + o +                             X + o + + + + 5                               + + + o o + + + + + + + + + + + + + + + + + + + + + + + + + + + + + + + + + + + + o + o + + + X + o X + + + + +                                                                               u.t.t.t.t.t.W.                            :.f f f f g f g f g f g                                                         ",
"                                                          j f g g f g g z                                                                                 + + + + + X X +                         ] + X o o + o +                                   + + + + + + o + + + + + + + + + + + + + + + + + + + + + + + + + + + + + + + + + + + o + + + +     o + + X + + o +                                                                               u.r.y.y.7.t.I.                            g g g f g f f g g g f z                                                       ",
"                                                        N.f f f g g f g                                                                                 ; o + o + X + o                         s + o o + + + 5                                     + o + + + + + o + + + + + + + + + + + + + + + + + + + + + + + + + + + + + + + + + o o + o o +       & o + + o + + o s                                                                             t.t.t.t.y.t.J.                            f g f g g f g f f g g N.                                                    ",
"                                                        f g g f g g g b.                                                                                + + o + X o + o                       = + + + o + o                                       $.+ + o X + o + o + + + + + + + + + + + + + + + + + + + + + + + + + + + + + + + + + + + + + + +         O.+ + + + + + o 5                                                                             t.t.7.t.t.t.U.                          v f g f g f f g f g f g                                                     ",
"                                                      z f f g g g g g                                                                                   . X + + o + o                       2 + o + X + +                                         = + o + X + + + + + + + + + + + + + + + + + + + + + + + + + + + + + + + + + + + + + + + o + + X             o X + o + + + &                                                                             7.t.t.y.y.t.                            g g g g g g g f g f f z.                                                  ",
"                                                      g g g g g f f                                                                                   & + o X o + + +                     & + + o + + &                                           + + + + o + o + + + + + + + + + + + + + + + + + + + + + + + + + + + + + + + + + + + o + + + o +               X + + + + + + ;                                                                             6.t.t.y.t.r.                          b.f f f g g f g f g g g                                                   ",
"                                                    f g g g f f g f                                                                                   o o o + + + + 5                   & o + + o + %                                             + + o + X + + + + + + + + + + + + + + + + + + + + + + + + + + + + + + + + + + + + + + + + o + +                 & X + X + + + ;                                                                           U.t.t.7.y.y.t.                          f g g g g f f g g g f E                                                 ",
"                                                  m g f f g g g g ;.                                                                                  + + o + X + +                   @ o + o o X -                                             % + + + + o + + o + + + + + + + + + + + + + + + + + + + + + + + + + + + + + + + + + o + + + + + +                   : o + o + o o :                                                                           q.t.y.t.t.t.q.                          f g f g g g g g f f f                                                 ",
"                                                  f g g f g f f g                                                                                   i X + o + + o #                 r X o . + + r                                           5 + X + + + + o o + + + + + + + + + + + + + + + + + + + + + + + + + + + + + + + + + + + + o + X + + +                     r + o o + + + r                                                                           r.t.t.y.7.y.Y.                        h g f g g f g f f g f Q                                               ",
"                                                H g f g f f f f                                                                                     o + + o + + o                 @.o + + + + s                                         %.o + o +     + + X o o X + + + + + + + + + + + + + + + + + + + + + + + + + + + + + + + + + + + o + + + o                       p + + + + + + [                                                                           t.t.y.t.t.t.                          f f g g f g g g g g g                                               ",
"                                                f g f g g f g f                                               E.t.                                  + + + + o o X                 + + o + o s                                         + o + + p         } + + + o o + + + + + + + + + + + + + + + + + + + + + + + + + + + + + + + + + + + + + + +                         p + + + o + .                                                                           i.y.7.t.t.t.t.                        j g f g f g f g f g g Z.                                            ",
"                                              j g g g g f f g                                               u.t.                                    + X + + + + s               o o + + o s                                       ; o + + &                 6 + + + + + + + + + + + + + + + + + + + + + + + + + + + + + + + + + + + + + o + + + +                           & o o + + + +                                                                           t.t.7.7.7.t.I.                        g g g f f g g g g g f                                             ",
"                                              g g g g g g f f                                             p.t.                                    s + o + o + +               & o + + + &                                     , + + + +                         ; + + + + + + + + + + + + + + + + + + + + + + + + + + + + + + + + + o + + + + o 5                             + X o o o + ;                                                                           e.y.t.y.t.y.                        f g f g g f f g g g g                                             ",
"                                            z g g f g f g g Z.                                          p.t.W.                                    + + + o + + +             s . + + + o                                   @.+ o + o                                 + + + + + + + + + + + + + + + + + + + + + + + + + + + + + + + + + + + o o o O.                              + + + + o + s                                                                         u.7.y.t.y.y.u.                        f g g f g f g f f g k                                           ",
"                                            g f f g f g g g                                           p.7.u.                                      + X + o + + s             o + + o +                                   o + + + s                                     O.+ + + + + + + + + + + + o + + o + + + + + + + o o + + + o + + + + + o + 6                                 + + + + X +                                                                           t.t.y.y.y.t.                        g f g f g g f f g g f                                           ",
"                                          v f g f g f g g Y                                         I.t.y.                                        + o o o + X             o + X + o                                 6 o + + %                                             5 X o + o X o + + + o o X + + o o + + + + + + o + o + + + + + o o + + +                                 s + + + + + o                                                                         I.e.t.t.t.t.t.                      Z.g f g f g g g g f g <.                                        ",
"                                          g g g g f g f f                                         W.t.t.                                        ) + o + + X o           , + + o + +                             $.+ + + +                                                     & + + + + + + + X + + + + o + + + + + + + X X + + + + o + o + + + + o                                 ; + o o o + s                                                                         y.t.t.t.t.t.                        g f g f f g f f g g g                                         ",
"                                        z.f g f f g f f g                                         t.t.W.                                        , + + X o + s           + + + o o + X + 6                     + o o o O.                                                          + o . + o + o o + X . + + + + + + o + + o + o + o r           o + +                                 + X X + + +                                                                         I.t.y.t.t.t.t.                      H f f f f g g f g f f                                         ",
"                                        f f f f f g g g 4.                                      6.y.t.                                          X + o + o +           & + + + o + + + + o o + 6           6 o + o #                                                                 s + + + X + + + o o o o o + + + o + . +.                    s X o ;                               ] + + o o + &                                                                         t.t.t.t.t.t.                        g g g f g g g f g g m                                       ",
"                                        f g g g g g f f                                       t.7.t.                                            + + + + + +           + + o X X + + + o + + o + . + t %.+ + o +                                                                         ; + o o + + o + + + + + O.                                s o + s                               & o + + o X                                                                         I.7.t.y.y.8.t.                      g g g f g f g f f g g                                       ",
"                                      I g g g g f g g f                                     u.t.y.a.                                            + + + + + +         o X + + + + o + o + X + + o X + o X + + @.                                                                              + + + X + o.                                            & + +                                 + o + o + +                                                                         t.y.8.t.y.t.                      ,.g g f g g f g f f f                                       ",
"                                      g g g f g f f f z.                                    t.y.t.                                              + + o + o )       ~ + + + + + + + + X o + + o + + + X + +                                                                                   o + +                                                     + o o                               , + X + + + )                                                                       u.7.y.t.t.t.t.                      g g g f g g g f g g Q                                     ",
"                                      f g f f g f f g                                     t.t.y.i.                                            F X o o . o         o + + + + + + + + + + + + + + + + o o +                                                                                   + + +                                                       o + o                               o + + + + +                                                                         y.7.y.y.y.t.                      g g f g g f g g f f f                                     ",
"                                    g g f g f f g g g                                   u.t.t.t.                                              t + o o + o         + + + + + + + + + + + + + + + + + + o +                                                                                   o + o                                                         + + @                             5 + o + + o                                                                         r.t.y.y.t.7.                      v.f g g f g g g f f g                                     ",
"                                    f f g f g g f f ,.                                  t.r.t.E.                                              # o + + + +       + o + + + + + + + + + + + + + + + + + o +                                                                                 s + + X                                                           o o 5                             + . o + + +                                                                       I.t.7.y.t.7.8.                      g f g f g g f g g g                                     ",
"                                    g f f g g g g f                                   t.y.y.t.                                                + + o + o }       o + + + + + + + + + + + + + + + + + + o o                                                                                 o . + O.                                                          ] + + s                           5 + o o + +                                                                         t.t.t.t.t.t.                      g f g g g g f g g f z                                   ",
"                                  z g g f g f g g f                                 Q.6.y.t.w.                                                + o o + o       & + o + + + + + + + + + + + + + + + + + o +                                                                                 + + +                                                               8 + +                             + X o + . ;                                                                       t.t.y.t.y.7.G.                    H g f f g g f f g f g                                   ",
"                                  f f g g f f g g g                                 t.t.t.t.                                                  o + + + .       X + + + + + + + + + + + + + + + + + + + o +                                                                                 + + +                                                                 # X +                           5 + X o + o                                                                       R.y.t.t.7.y.t.                      f g g g g f g g f g                                   ",
"                                  g f f f f f g g A.                              I.y.y.y.d.                                                  + + + + +     O.+ o + + + + + + + + + + + + + + + + + + o o                                                                                 + o +                                                                   & + +                           X + + + + s                                                                       t.t.t.t.t.7.                      g f f g g g f f f f                                   ",
"                                4.g g g g g f g f                                 t.y.t.t.                                                    + + + o +     + o + + + + + + + + + + + + + + + + + + o o +                                                                               ; + o 6                                                                     + + ;                         + + o o + +                                                                       t.t.t.y.y.t.                      f f g f g g g f f g 4.                                ",
"                                f g f g g g g f g                               I.r.t.t.t.                                                    + o + o 5     + + o X + + + + + + + + + + + + + + + + + o +                                                                               + + o                                                                         + + s                       @.+ + + o X                                                                       y.7.7.t.t.t.W.                    v g g g g f f f g f g                                 ",
"                                f g g g f f g f g                               t.y.7.t.                                                      + o + o O.  y + + + o + + + + + + + + + + + + + + + + + o o                                                                               + o +                                                                           X +         %.C 5 o o o o + + o o + + #                                                                       t.7.y.t.t.t.                      g g f g f g g g f g                                 ",
"                                f g g f g f g g z                               t.t.t.t.                                                      + o + +     o o + o + + + + + + + + + + + + + + + + + o o o                                                                               + + o                                                                           s + o + + + + + o + X + + X + o + X o +                                                                       y.y.t.t.7.t.                      f g f g f g f g g g                                 ",
"                              4.f g g f f g g g b.                            r.t.y.y.5.                                                      + + + +     o + o + + + + + + + + + + + + + + + + + + + o +                                                                             s + + +                                                                             o + + o + + o + + + o o + o + o + o + q                                                                     t.t.t.r.7.r.                      g g g f g f f g g g                                 ",
"                              g f f g g f g f f                               t.t.y.t.                                                        + + + +     + + o + + + + + + + + + + + + + + + + + + o o +                                                                             + o X s                                                                           o + + X + + + + o + + X + o + + + o + + +                                                                     t.t.t.t.y.y.                      f g g g f g g f g f N.                              ",
"                              g g f g g f g g g                             p.t.y.7.y.                                                        o + + +   5 + + + + + + + + + + + + + + + + + + + + + + o +                                                                             o + +                                                                             o + + + + + + o + + o + o o + o + + + o o                                                                     u.y.t.t.t.t.                      T g f g g g g f g f I                               ",
"                              f g f f f g g g g                             t.t.t.t.t.                                                        + o + o   o + + + o o + + + + + + + + + + + + + + + + + o +                                                                             + . +                                                                           r + X o + o + + o + + + + o + o + + + + + + =.                                                                  E.t.y.y.t.7.u.                    c.f g g g f g f f g f                               ",
"                              g g g g g g g f f                             y.y.t.y.P.                                                        + o + + ^.o + + + + + + + + + + + + + + + + + + + + + + o +                                                                           ] + + o                                                                           + + o + X + o + + + o o + + o + o + o + + o +                                                                     7.t.t.t.y.y.                      f g f f g f g f g g                               ",
"                            n.f g g g f g f g g                           u.t.7.y.y.                                                          o + + X /.+ X X + + + + + + + + + + + + + + + + + + + + + +                                                                           5 o + +                                                                           + + + + + + o + + + + + + + + + + + + + + + +                                                                     t.t.y.r.t.t.                      g f g f g g g g f f                               ",
"                            j g f f g f f f f 2.                          t.y.t.8.t.                                                          + + + + +.+ + + + + + + + + + + + + + + + + + + + + + + o +                                                                         6 + + + +                                                                         6 + X o + + + o + + + + + + + + + + + + + + + +                                                                     t.7.7.t.7.e.                      f f g f f g g f g g                               ",
"                            g g f f f g g g f Z.                          y.y.7.t.7.                                                          + o + p 6 + + + o X + + + + + + + + + + + + + + + + + + + o                                                                     A + o + o X o                                                                         + o X + o + o + + + + + + + + + + + + + + + + + 6                                                                   5.t.y.t.7.t.                      f f f g g g f f g f                               ",
"                            g g g g f g f g g                             t.t.y.e.I.                                                          o + + +.X + o o o + + + + + + + + + + + + + + + + + + o + X                                                                   + + + + + + o + ;                                                                       o X + o o o + o + + + + + + + + + + + + + + + + +                                                                   t.y.t.y.y.t.                      g f f g g g f f g g                               ",
"                            f f f f g g f f f                           t.t.7.y.y.                                                            o + o . + o + o + o o + + + + + + + + + + + + + + + + + . + . + %.                                                        o + o + + + o + o + + ;                                                                   ; + + o + X + + + + + + + + + + + + + + + + + + + +                                                                   t.t.y.t.t.t.                      z g f f g g g g f g                               ",
"                            g g f g g g f f g                           e.t.t.t.r.                                                            + o + + + + + + + o + + + + + + + + + + + + + + + + + + + + + + o . 5                                                 & o o o X o + + + + X + o o ;                                                                 + + o + + + + + o + + + + + + + + + + + + + + + + o                                                                   t.t.y.t.t.7.                      B.f g g g g g g f g                               ",
"                            f f g g f f g g g                           y.e.y.t.t.                                                            * o + + X + + o + + o + + + + + + + + + + + + + + + + + o + + + + o o + &                                         ; + + o + o + o + + + o + o + X + ;                                                               o o + o + + o + o + + + + + + + + + + + + + + + + o s                                                                 t.t.7.y.7.y.                      b.g g f f g f g f g l.                            ",
"                            g g g f f g g f g                           7.y.t.t.t.                                                            S + + + o o + o + X + + + + + + + + + + + + + + + + + X p   = X o + o + + o =                                 5 + + + o o + + + + + + + + + + + + + + s                                                           X + o + + o o + + + + + + + + + + + + + + + + + + + + o                                                                 I.t.t.8.y.t.                      Z.f g g g g f g f g z.                            ",
"                          Z.f g f g f f g g g                         Q.t.t.t.t.t.                                                            S + + + + + + + + + + + + + + + + + + + o + + + + o + &         5 + o + o + + + %                         } + o + + + + + + + + + + + + + + + + + + + + s                                                         + + + + + + + + + + + + + + + + + + + + + + + + + + + +                                                                 W.t.7.t.y.t.                        g f g g f g f f g z.                            ",
"                          Z.f g f g g g f g g                         t.t.t.7.y.t.                                                              o + + + + + + + + + + + + + + + + + + o o + o o + @               @.X o X + + + o &                   + + o + . + + + + + + + + + + + + + + + + + + + + r                                                     ] + + + + + + + + + + + + + + + + + + + + + + + + + + + +                                                                 7.t.t.7.y.y.                        g f g f g g g g g z.                            ",
"                          Z.g g f f g f f f f                         t.y.t.t.t.I.                                                              + + + + + + + + + + + + + + + + + + o + + + + + X                       + + o . + + + ;           ; + o o o + + + o + + + + + + + + + + + + + + + + o + + ]                                                   . + o + + + + + + + + + + + + + + + + + + + + + + + + + +                                                                 t.8.y.7.t.t.                        g f g f g f f g g z.                            ",
"                          b.f f f f g f f f f                         t.t.y.e.y.                                                                + + + + + + + + + + + + + + + + + + + o + + + o                             + X + + X + + 5   ; + + o o + X + + o o + + + + + + + + + + + + + + + + o + X +                                                   o X + + + + + + + + + + + + + + + + + + + + + + + + + o + 6                                                               t.8.t.t.y.t.                        g g g f g f f g g z.                            ",
"                          g f g g g g g g f f                         t.y.y.t.t.                                                                + + + + + + + + + + + + + + + + + + o + + o o                                   & + + o + o X + o + + + o + o X + + + + + + + + + + + + + + + + + + + + o + +                                               _ o + o + + + + + + + + + + + + + + + + + + + + + + + + + + o                                                               7.y.7.7.t.t.                        g f g f g f f g f z.                            ",
"                          g f f g g g g g f f                         t.r.7.t.t.E.                                                              + o + + + + + + + + + + + + + + + + + o o +                                         * + + + + + + o + + X X + + o X + + + + + + + + + + + + + + + + + + + + o +                                           r o + o X + + + + + + + + + + + + + + + + + + + + + + + + + X +                                                               y.t.y.t.t.t.                        g f g f g f f g f c.                            ",
"                          g f f g f f f g g g                         7.8.y.t.t.T.                                                              t X + + + + + + + + + + + + + + + + + + + q                                             : X o X o + + o o + + + + X + + + + + + + + + + + + + + + + + + o X + o +                                 q + o + o + o + + + + + + + + + + + + + + + + + + + + + + + + + + + X +                                                               t.y.t.t.y.U.                        g f g f f f g f f                               ",
"                          g f f g f f f g g f                         y.t.t.y.t.                                                                  + + + + + + + + + + + + + + + + + + X 5                                                 o + + + o X + + X + + + o + + + + + + + + + + + + + + + + + + + + + + + o                       +.o + + o + + o + o + + + + + + + + + + + + + + + + + + + + + + + + + + + o + o                                                               t.t.y.y.y.                          g g g f f f g f g                               ",
"                          f f f g f g g f g g                         t.7.8.t.t.                                                                  o + X o o + o + + + + o o + + + + o &                                                   = + o o + + + + + + + + + + + + + + + + + + + + + + + + + + + + + + + + + +             | # o + o + + o + + o + 5   + + + o o + o + o + o + + + + + + + + + + + + o + o o + + +                                                               t.t.t.t.y.                          g f g g f g f g g                               ",
"                          j f g g g f f f f f                         t.t.y.t.y.                                                                  o X + + + + o o + + X o + + . + + +                                                       + o o + + + + + + + + + + + + + + + + + + + + + + + + + + + + + + + + + + &     6 o + o + + + + + + + 5           t X + + + + o + + o X + + + + + + + + + + + + + o + o + + +                                                               t.y.t.t.t.                          g g f f g f g f f                               ",
"                          D.f f g g g g g g g                         t.t.t.t.y.                                                                  + + + + o o + + + X o + o + o + +                                                         + + + + + + + + + + + + + + + + + + + + + + + + + + + + + + + + + + + + X + o o . + X + o . + =                     + + o o X o + o + + + + + + + + + + + + + o + + o + + o + @.                                                            t.t.t.t.6.                        b.g g f g g f g f f                               ",
"                          Z.f g g g g g f f g                         t.t.8.t.y.                                                                  s o o X + o + + . + + o + o + o                                                           + + + o + + + + + + + + + + + + + + + + + + + + + + + + + + + + + + + + + o + o + + o +                               X + + + + + + + + + + + + + + + + + + o + + + o o + o + 6                                                             t.t.t.t.t.                        Z.f g f g g g g g g                               ",
"                          Z.f g g f g g f f f A.                      t.y.7.y.t.I.                                                                  + + + + + X +   O.& + + + o                                                             + + + o + + + + + + + + + + + + + + + + + + + + + + + + + + + + + + + + + o + + s                                     X X + o o + + + + + + + + + + + + o + + + o + o + + + + o                                                           u.y.8.y.y.                          N.f g g f g f g g f                               ",
"                          Z.g g g f f f f g g Z.                      t.t.t.t.y.t.                                                                  o + + + + + +           + +                                                             s + o + + + + + + + + + + + + + + + + + + + + + + + + + + + + + + + + + o @.                                            + X + + o + + o + + + + + + + + + o + + + o + + + o + +                                                           t.t.r.t.t.                          U g g f f f f g g g                               ",
"                            g f g f f f g g f f                       7.t.7.y.t.t.                                                                  & + o + + + o           5 + &                                                             + + + + + + + + + + + + + + + + + + + + + + + + + + + + + + + + + + + X                                               & + X + + X + + + + + + + + + + o + o o o + + . + + + o                                                           t.7.t.t.t.                          f f f g f g f f g b.                              ",
"                            g g g g g f f g g f                       t.y.y.t.y.t.                                                                    + + + + o +             + o                                                             + o + + + + + + + + + + + + + + + + + + + + + + + + + + + + + + + + + @.                                                + o X + X + + + + + + + + + + o o + o + + . d + + + +                                                           t.t.8.t.t.                          g g f g g g g f g                                 ",
"                            g g f f f f g g f f                       t.7.t.t.y.t.                                                                    o + X + o X             + o                                                             o + + + + + + + + + + + + + + + + + + + + + + + + + + + + + X o o + +                                                   5 + + + + + + + + + + + o + + + + + + + o + s + + o +                                                         I.y.t.7.t.                            g f g f f g f g f                                 ",
"                            g f g g g f g f g g                       t.7.y.t.t.t.                                                                    o . + + o + 5           + +                                                             = + o + + + + + + + + + + + + + + + + + + + + + + + + o . + + o + X 6                                                     o + o o + o + + o + o + + + + o + + + o + !.+ o o +                                                         t.7.t.y.t.                            g f g g f g g g g                                 ",
"                            g f g g g f g g f g                       t.y.t.t.y.7.                                                                    5 X + o + X +           s + 6                                                             + o + + + + + + + + + + + + + + + + + + + + + + + + o + o + + + +                                                       6 o X + o + + o + + + o + + o + + o + + + (.+ + + +                                                         t.t.t.7.u.                            f f f g g f f g g                                 ",
"                            f g g g f g g g f g                       p.t.t.y.7.t.                                                                      + + + o + o             + o                                                             + + + + + + + + + + + + + + + + + + + + + + + + + + + o o + + o 5                                                         + + + + + o o o o + + + + + o X + o + + /.o + + o                                                         r.8.t.t.                              g g g g f g f f f                                 ",
"                            v g g f g g f g f g v                     L.y.t.y.t.t.q.                                                                    + + o + o o q           + o                                                             + o + + + + + + + + + + + + + + + + + + + + + + + + + o X o + X                                                           q o + + + + o + + + o + + o + + o + + D ~.o + + o                                                       q.t.7.e.t.                            N g f g f f g g g h.                                ",
"                            h.g g f f g f g g g g                       t.y.t.7.y.t.                                                                    q o X + o + +           . o                                                             + + + + + + + + + + + + + + + + + + + + + + + + + + + + + + o #                                                             + + + + + + + + o + X X + o + + + o   S o + + +                                                       t.t.t.y.w.                            f f f f f g g f f                                   ",
"                              g f f f f g g g g f                       t.y.7.y.t.t.                                                                      + o o + + X           s o s                                                           O.+ + + + + + + + + + + + + + + + + + + + + + + + + + o o + X                                                               o o + + + o + o + + + o + + + X + o   s + + o +                                                       y.t.7.7.                              g g g g g f g g f                                   ",
"                              g f g g g g f f g f                       t.y.t.t.7.y.                                                                      o + + + o o 6           + +                                                             o + + + + + + + + + + + + + + + + + + + + + + + + + + + X +                                                               + + X 5 @.V             @.X o + + ,   + + o + +                                                     t.y.t.y.u.                              f f g g g f g f f                                   ",
"                              g f g f g f g f g f                       u.7.y.y.7.t.I.                                                                      + o + + + o           + +                                                             + + + o + o + + + + + + + + + + + + o + + o o + + o + + +                                                               6 + +                     + + + + X     + o + o +                                                     t.7.t.t.                                g g f g g f g f 2.                                  ",
"                              g g f f g f f g g g z                       t.t.t.t.t.t.                                                                      + o + o + + ]         + +                                                             o + X + + + X + o + o + o o + o + o + o + + + o X + o + +                                                               + o 6                     + + X o +     o o + o .                                                     y.t.r.u.                              h.f g g f g f g f                                     ",
"                              Z.g g g g g f g g f g                       t.t.t.y.t.y.                                                                      & . + X + + +         @.o @.                                                          5 + X o + + + o + X o + + o + + X + + + o + o + + + + + t                                                             @.+ o                     s + o + + 5     + + + + +                                                   t.y.t.t.                                f f g g f g f f g                                     ",
"                                f f g f f f f g g f                       t.t.y.7.y.t.                                                                        + + + + + o S         o o                                                           s o o + + + o o + + + + o + o + o + + + + + o o o o o o                                                               + o ;                     + + + o +     | + o X + o                                                   t.t.t.u.                                g f f g f g g g g                                     ",
"                                g f g g f g g f g g Z.                    I.y.t.t.y.t.t.                                                                      + + + X o + +         + +                                                           o + + . + o + + + o o o + + o + + + o + o + + + + + o 5                                                               X +                       . o + o +     w . + + o +.                                                e.y.t.t.                                  f g g f f f g g                                       ",
"                                g g g g g g g f f g g                       t.t.y.t.t.t.                                                                      @.o X o + + +         & +                                                         + X + @   { @.5 o + + + + + o + o + + + o + + + + X + +                                                               + + +                     o + + + o       o + o o + O.                                                y.t.t.I.                                4.g g g f g g f f                                       ",
"                                4.f g f f g f g g f g                       r.t.t.y.7.7.                                                                        + o o X o + ;         o @.                                                    o + + &                           ~ +.& + + + + + + o + + &                                                             X o                       + + X X +       + o + + +                                                 t.t.y.t.                                  f g g g g g g f g                                       ",
"                                  g g g f f g g g g g                       I.8.t.7.7.t.t.                                                                      6 o + + + + +         + +                                                   + + o &                                                 5 o X ]                                                         ; + o                     ; + X o + 5       + + X + +                                                 t.y.7.                                    g g g f f g f g                                         ",
"                                  f g g g g f f f g g j                       t.t.y.t.y.y.                                                                        + + . + o X +       o o                                                 + o o &                                                     + + +                                                         + + O.                    + + + + o       ^ + X + + +                                               7.t.t.u.                                    f g f g f g f g                                         ",
"                                  z f f f g g g f g g f                       t.t.y.y.t.y.I.                                                                      5 + + + + o + @.    + + + +                                           & o X &                                                         + + 6                                                     6 + o                     6 o o X + 6       + o + + o +                                             R.t.t.y.                                    f g f g g g g g z                                         ",
"                                    g g f f g f f g g f                         8.y.7.t.t.t.                                                                        + + + o + o o   @.+ o o + + + 8                                   ; o + &                                                           5 + +                                                     + + ,                     + . + + X         + + o + o +                                             y.r.t.                                      g g f f g f g f                                           ",
"                                    f g f g g g f f f f g                       y.t.t.t.t.t.0.                                                                      : + + + + X o & + o + + + o + + o @                             & o X +                                                               + + +                                                 C + +                     % + + + + :         + + o + + @                                           9.y.t.U.                                    c.g g f f g g g f                                           ",
"                                    j g f f f f f g g f g                       E.t.t.7.t.t.t.                                                                        + + o + X + o + o + + + + o + o + o + ~                     r o + +                                                                 ` + + r                                               X o +                     o + o + X         r o + o + o ^                                           8.7.u.                                      g f g g f g g g J                                           ",
"                                      f f g g g g g g f g v                       y.7.y.t.y.7.E.                                                                      O.o o + + o + o + X + + + + o X + o + + + 5               S + + X                                                                     ; + +                                             ] o +                     o + + o +           o + + + + o                                           t.t.t.                                        g g g f g f f g                                             ",
"                                      g g g f g f f g g g g                         t.t.t.7.y.t.                                                                        + o + + + + + + o + o + o + + + + + + o + o ;         q + + +                                                                         o + X                                         + o + +                   3 + X + + &           + + + o + +                                         u.8.t.                                        4.f g f g g f g j                                             ",
"                                      H g g f g f g f g f f                         t.t.y.t.t.t.Q.                                                                        + + o + + + + o + X + + + o + + + + o X + + o + $.  + + o                                                                           @.o o @.                                6 + + + + + +                   + + + o X           s + + + + + o                                       Q.t.t.                                          f g f g g g f f                                               ",
"                                        f g f f f g f g g g f                         t.y.y.y.t.t.                                                                        9 o + o X + + + + X o o + + + + + + + + + + . + o o o +                                                                               + + o                             + + + + + + + + + &               + + + o + s           o X + o + + .                                       t.t.                                            g g g f g g f g                                               ",
"                                        f g g f g g f g g f g                         6.t.y.t.t.t.u.                                                                        + + + o + o o + + + + o + + + + + + + + + + + + + +                                                                                   o + &                     6 + . o + + + + + + + + + O.          & + + + + ;             + + o + o o @.                                    t.t.                                            f f f f f g g f                                                 ",
"                                          g g g f g g f f f g j                         t.y.y.t.y.t.                                                                          + o + X + + + o + + o + + + + + + + + X + + + + + ;                                                                                 5 + +                 + + + + + o + + + + + + + + o +         s X + o o o             s + o + + + +                                     u.t.                                              f g g f g f g f                                                 ",
"                                          g f f f f f g g g f g                         I.7.t.t.y.y.t.                                                                        O.+ + + o X o + o + X + + + + + + + + + o + o + + o                                                                                   + o +         , + + o + o + + + + + + + + + + + o + o       + + + + +               o + + o + + +                                   u.t.                                              h g g g g f f g                                                   ",
"                                          g.g f f g g g g g g g z                         t.t.y.7.7.t.Q.                                                                        s o + + + + o + + + + + + + + + + + o + o + o + X +                                                                                 @.X + 6   + + o o + + X + o + + + + + + + + + + o + o s   o + o + + r               + + + + + + o                                 R.t.                                                f g g f f f f g                                                   ",
"                                            g g g f f f f f g g g                           y.e.t.t.t.t.                                                                          & + + + + X + o + + + + + + + + + o + + o + + o + &                                                                                 & X + + o + + + + + + + + + + + + + + + + + + + + o + + + X X + @               6 + + + o + o s                                 u.                                                H g f g f g f f                                                     ",
"                                            v g g f f f f g g f f h                         U.t.8.t.7.y.t.                                                                          + + + + o + o + + + + + + + + + o o + X o + + + X                                                                                   + o + + + + o X o + + o o + + + + + + + + + + o + + + o + o &                 + o + o + o +                                                                                     g g g f g g g h                                                     ",
"                                              f f f g f g f f g f g                           q.t.y.y.t.t.u.                                                                          + + + + X + + + + + + + + + + + + o + + + + + + o                                                                               &.o + + o X o + + X + o + + + + + + + + + + + + o + X + + + o                 @.+ + o o X + X                                                                                   I f g g f f g g                                                       ",
"                                              H f f f g f g f f f f f                           t.y.t.y.t.7.W.                                                                          + + + o + + + + + + o o + + + + + + + + + + + + ;                                                                             + + + + X + + + + + + + + + + + o + X + + + + X + + + + + +                   + + + + + o + ;                                                                                   g f f g f f f 2.                                                      ",
"                                                g g g f f g g g g f g                             t.t.t.t.y.t.                                                                            o + + X + o o o o X X + o + + + + + + + + + + o                                                                           & o + + + + + + + + + + + + + + o o + o o + + + X o + + o +                     + + o + X + +                                                                                   j g g g g g g f                                                         ",
"                                                c f f f g f f g g g g g                             t.y.8.y.t.t.                                                                            o + + O + X + o + + + + + + + + + + + + + + + +                                                                         + + + o o + o + + + + + + + + + + + + + + + o + + o + + +                     @ X + + + X o o                                                                                   f g f f g g f                                                           ",
"                                                  g g g g g f f g g g f E                           E.t.7.t.t.7.t.                                                                            + o X + + o + X o + + + + + + + + + + + o + o ,                                                                     o X + + X + o + + + + + + + + + + X o + X + + + + o + + o                       + o + + + + + @                                                                                 g g f g f g f j                                                           ",
"                                                    f f g f g g f f g f f                             W.t.7.y.t.t.t.                                                                            o o o + o o + + + o + + + + + + + + + + o + +                                                                   @.o + o + o o + + X + + + + + + + + + o + + o + + . + + +                       5 X + o X + o +                                                                                 b.f f g g g f g                                                             ",
"                                                    f g g g g g f g g g f f                             R.t.8.r.y.t.t.                                                                            @ + + X o + + + + + + + + + + + + + X + o + +                                                                 + + o X + o o + + + + + + + + + + + + + + + + + o + o &                         + + + + o o + o                                                                                 g f g f g g g                                                               ",
"                                                      g g f g f g g g g g f V.                            W.t.t.7.y.y.u.                                                                            , + o + o + + o + + + + + + + + + + + X + o 5                                                             6 + + + + o + + o + + + + + + + + + + + + o + + o + o s                         # + + + + + o + #                                                                               h g g g g f f v                                                               ",
"                                                      v f g f f f g f g f f g                                 t.t.t.t.y.t.                                                                            @.+ o + + X + + + + + + + + + o X o + o + o                                                             + + + o o + o + + o o + + + + + + + + + + + + . + o                             o + + o o + X +                                                                                 g f g f g g f                                                                 ",
"                                                        g g g g g g f g f f f g                                 t.y.y.t.t.t.                                                                              o X + + + + + o + + + + o + + + + + + + +                                                         o o o + + + + + + + + + + + o + + + + + + + o + o o                             ; + o + + o + + X                                                                               f g g f g g g                                                                   ",
"                                                          g g f g g f g f f f g 4.                                t.t.y.t.7.t.                                                                              6 + + . + + + o o + + + + + + + + + + + p                                                     ] + + + + + + + + + + + + o X + X o + o + + o + o i                               + + + + + o + + +.                                                                            z g f f f g g b.                                                                  ",
"                                                          m g g g g g g g g g g f                                   u.t.t.t.t.r.                                                                                o + + + + o X + + o + + + + + + + + + o & +.@.                                            + o + o o + + + + + + + + + o o o + + + X + o +                                 o + + + + X + + o                                                                               g g g f f g H                                                                     ",
"                                                            g f f g g f f g f f f g                                   G.t.t.t.t.t.I.                                                                              5 + + + + + o X o + + + + + + + + + + o + o + o + + + X ; +.S                         6 X + . + + + + + + + + + + + o + + + o . o o d                                   + + o + + + + X 5                                                                             g g f f g g j                                                                       ",
"                                                              f f f g g g g g g f g f                                     t.t.r.t.t.t.                                                                                & + X + o X + + + + + + + + + + o o X X o + o + + o + + + o + o + o = +.          + + + + + o + + + + + + + + X o o + + o + 6                                     + o . + + + + o +                                                                             f f f g g f f                                                                         ",
"                                                              4.f g g f f g g f g g g b                                     I.t.t.t.t.t.                                                                                  ; + + + + + + + + + + + + o o o + + + + + + + + + + + + + X + + + + + + o + + o + + + + o + + + + + + + + + . + o + #                                       # + + + + + + + o X                                                                           v f g g f g g                                                                           ",
"                                    o                           z g g g g g f f g f g f 4.                                      p.t.y.7.t.I.                                                                                  % o o + + + + + + + + o + o + o + + + X o + + o + o o + + + o o + + + + + + X o + o + + + + + + + + + o + + &                                           + + o + + o X + X                                                                           D.g g g f f g                                                                             ",
"                                    @.+                           f f g f g g g f g g g f                                           t.t.y.t.t.L.                                                                                  5 + + + + + + + + o o + o + + + + o + + X + X + + + + + o + o + o X o o + o X + + + + + + + + + + + 5                                             X + o X X o + + o X                                                                           g g g f g f                                                                               ",
"                                      o %                           g g f f g f g f g f g g                                           U.t.t.7.t.t.                                                                                      + + + + + + + + o + + o + + + + + o + + + + + o o + + + + o o + o + + o + + + o o + + o X `                                               , o + + o + + + o +                                                                           f f g g g f R                                                                               ",
"                                      t + V                           g f g g f f g f g g g g                                             K.y.t.7.r.u.                                                                                      6 + X . + o + o + o + + + o + + + + + + + o + + + + + + X o + + o + o o o + o o `                                                     + + o + X o + o + @                                                                         g g g f f g n                                                                                 ",
"                                        o +                           E g f f g g f f f f g f f                                                 t.t.7.t.s.                                                                                          & + o + + + o + o + + + + o + + + + o + + + + X o + + o + o + + ,                                                           o + + + + o o X + .                                                                         j g g f f g Q                                                                                   ",
"                                          + &                           4.f g g f f g g f g g g f                                                   I.t.r.7.p.                                                                                              @.X + o o o o + o + + + + + + o + o + o + + + + r                                                                 ; X + + + X + + + + &                                                                       z g f f g g 4.                                                                                    ",
"                                          + + s                           j f g g g g g g g f g f f                                                       s.t.t.t.                                                                                                        $.%.S , + + o a @.O.&.                                                                            s + + + + o + + o + +                                                                       j f f f g f b.                                                                                      ",
"                                            X +                             z f g g g f f f f g g g g                                                             u.                                                                                                                                                                                                        + + + o o + + X o + 6                                                                     z f g g g g                                                                                           ",
"                                            & o o                             z f g g g g g f f g f g f                                                                                                                                                                                                                                                                   o + o o + X o + + + +                                                                     j g f f f g                                                                                             ",
"                                              + + &                             j f g f f g g g f g f f g                                                                                                                                                                                                                                                               & + + + + + + + + o o +.                                                                  j g g g f g                                                                                               ",
"                                              $.+ + ;                             z f g g g f f f g f f g g                                                                                                                                                                                                                                                           s + o + o + o o + + o ;                                                                   z f g f g z                                                                                                 ",
"                                                # + + s                             j g f f g g f f g f g f f Z.                                                                                                                                                                                                                                                    s + o + + + + X + + X +                                                                   z f g f f 2.                                                                                                  ",
"                                                  o + o                               j f f g f f f f g g f g g <.                                                                                                                                                                                                                                                  + o + o + o + + o + + O.                                                                f f g f g                                                                                                       ",
"                                                  @.o + o                               2.f f g g g g f g f g f g j                                                                                                                                                                                                                                               + o + o + + + + + X o +                                                                 g g g g j                                                                                                         ",
"                                                    & + + +                                 g g g f g f g f g f f g f                                                                                                                                                                                                                                           + + + + + + + + + o X +                                                               3.g g f g b.                                                                                                          ",
"                                                      o + X o                                 g f g g f g g g g g f g f A.                                                                                                                                                                                                                                    X + o o + o + + + + + o S                                                             z g f g z                                                                                                               ",
"                                                        o X + o                                 j g f f f g f g g g g f g j                                                                                                                                                                                                                                 + + o + + + + + + + X + ;                                                             f g g f V.                                                                                                                ",
"                                                        5 o o o +                                 v g g f g f g g f g f g f g                                                                                                                                                                                                                             X + X + + o X + + o + + o                                                           z.g g g j                                                                                                                     ",
"                                                          + + + + +                                 c.f g f f g g g g g g f f g h                                                                                                                                                                                                                       + o + o o + + o + + X + +                                                           h g g f                                                                                                                         ",
"                                                            o + o + +                                   j f f f g f f g g g f f g f v.                                                                                                                                                                                                                + + + X + o + X X + + + +                                                           f f g v.                                                                                                                          ",
"                                                              + + + + o                                   Z.g g g g f f f g f g g g g g                                                                                                                                                                                                             + + o + + + + X + + o X o 5                                                       j g g v.                                                                                                                              ",
"                                                              O.+ + + + o                                     z g g f g g g g f f f g f f z                                                                                                                                                                                                       o o + o + + X o o + + + o &                                                     V.f g D.                                                                                                                                  ",
"                                                                t o X o X + s                                     g f g f f g f g g f f g g g v                                                                                                                                                                                               @.o + + X + + o + o + X + + +                                                       f Z.                                                                                                                                      ",
"                                                                  @ o + o + X ;                                     H f f f g f g f g f g f f f g I                                                                                                                                                                                         5 + + X o + + o + o + + + o +                                                                                                                                                                                                   ",
"                                                                    & + + + o o =                                       z g g g f f f g g f g f f g g Y                                                                                                                                                                                   ; . + o o o o + o + + + + + +                                                                                                                                                                                                     ",
"                                                                      & + + o X + +                                         f f g g f g f g f g g f g g f j                                                                                                                                                                             + + X o + + + o X o + + + + +                                                                                                                                                                                                       ",
"                                                                        + + X o + o X s                                         g f f g g f g g g g g f f g g g                                                                                                                                                                     ) X + o + + o + + + o + X o + +                                                                                                                                                                                                         ",
"                                                                          o + o + + + + ;                                           z g f g f g f g g g g g f f f g b                                                                                                                                                             @ X + o o + + o + + o + + + + o                                                                                                                                                                                                           ",
"                                                                            o + X o X + o X                                             H f f g g f f g f f f f g f f g g M                                                                                                                                                     o + + o + + o + + + + + + + . +                                                                                                                                                                                                             ",
"                                                                              & o X o o + + + ,                                             Z.g g f f g g g f f g g f g f g g g z                                                                                                                                           ; + + o o o + o o + + + X + o + +                                                                                                                                                                                                               ",
"                                                                                ; + o + . X + + o                                                 H f f g g g f f g g g f f f g g f f g Z.                                                                                                                                o + + + X + + o o o o + o + + + o                                                                                                                                                                                                                 ",
"                                                                                  & + + o + o + o o ;                                                   H g f g g f f g f f g g g g g f f g f g j -.                                                                                                                  6 X o + + o + + + + + o + o + + + +                                                                                                                                                                                                                   ",
"                                                                                    , o + + + o + + o + ~                                                     k.g g g g g g f f f f g g g g g g f f g f g f j j.                                          z.                                                      ^ + + + o + + o + o o + + + o + + o +                                                                                                                                                                                                                     ",
"                                                                                      9 o + o + X o + + + +                                                           M g g g g f f f g g g g f g g g f g f g g f g f g g g g f g g g f f f g g g f g f j f.                                                    X + o + + X + + + + + + + + o + + o &                                                                                                                                                                                                                       ",
"                                                                                          + X + + X + + + + + ;                                                                 I g g f g f g f g f g g g f f f f g f g g f g g f g f f f g g g Q                                                           & . o + o o + o + o + X + + + + + o o r                                                                                                                                                                                                                         ",
"                                                                                            + X o + + o o + o + + &                                                                         Z.A.f g g g g f f f g g f f g f f g f 2.Z.                                                                  ; o + o + + + + + + + + o + o o + + + X                                                                                                                                                                                                                             ",
"                                                                                              & o + + + + o + X + + o &                                                                                                                                                                             ; + o + o + + + + + + o + X X o + + o + +                                                                                                                                                                                                                               ",
"                                                                                                  + o + + + + + X o + o + +                                                                                                                                                                     o X + + X + o X + o X o + + + + + + + o + <                                                                                                                                                                                                                                 ",
"                                                                                                    + + o X o + + o + + + o + +                                                                                                                                                             + + X o + + o + + + + + X + o + o o + + o +                                                                                                                                                                                                                                     ",
"                                                                                                      s + + o + o + X + + + o + o + 5                                                                                                                                                 6 + + o . + o + o o + + + o + + o + + o X o + &                                                                                                                                                                                                                                       ",
"                                                                                                          o + X + + o o + + + + + o X + X @.                                                                                                                                    r + + X + + o + + + + X + + o + + + o + + + + X o |                                                                                                                                                                                                                                         ",
"                                                                                                            O.+ + X + + + o + + + + + + + o + + i                                                                                                                           + + + + + + + + X + + o + o X + + o + o + . o + o &                                                                                                                                                                                                                                             ",
"                                                                                                                ; + X + o + + o + + + + o + o + + o + s                                                                                                             5 o o + + + + + X + + + + + + + + + o o X + X + + o . +                                                                                                                                                                                                                                                 ",
"                                                                                                                    + + + + + + o + + o + X + + o + + + + + o s                                                                                             @.; o + + o + o + o o + + + + + + + + o + + + + + o + o + X @.                                                                                                                                                                                                                                                  ",
"                                                                                                                      p o o + o + o o + o o + o o + + + o + + + + + + 5 )                                                                           6 + + o + + + X o + + o + o o + + + o + + + + + + X + + + + + + 5                                                                                                                                                                                                                                                       ",
"                                                                                                                          s X + + + + + o + + + + + + o + + + + + + + + o o + + . s |                                                 %.5 o o + + + + + + + + o o o + o o + + + + o + o + + + X X + + + o + + + &                                                                                                                                                                                                                                                           ",
"                                                                                                                              p X o + o + o + + + X + + + o + + + X + o o + X o o + + + + + + + o o + + + + o & + + + + + + o o o o + o + + + o o o + o + + + X + o + + + + o + + + + + + o + o + o + o o + 6                                                                                                                                                                                                                                                               ",
"                                                                                                                                  A + + + + + + + o X + + + + o + o + o + o + o + . + o o + + + + o + o + + + + o + + o + + + . + + o + + o + + + + o o + + o + + + + o o + + + + + + + + + + o o + + o 3                                                                                                                                                                                                                                                                   ",
"                                                                                                                                      $.+ + + + o + o + o + + + + + o + o + X + + + + + + + + + o + + + + o + + + + + + + + + + + + X + + + + + + + + o + + o o + o + o o + + + + + X + + + X + + + 9                                                                                                                                                                                                                                                                       ",
"                                                                                                                                            6 + + + + + + + o + o + o o + + + o o + + + + + + o + + + + + + o + + + + + + + + + + + o + + + + o + + + o + + + + + o + + + o + + + o + + + + + =                                                                                                                                                                                                                                                                             ",
"                                                                                                                                                  + + + + + o + + X + + + o + + + + + + o o + + + + + + X + + + o + + + + + o + o o o + + + + o o o + + + o + + + o + + + + + + + + + o o O.                                                                                                                                                                                                                                                                                ",
"                                                                                                                                                        o + + + + + + o + + + . + o + + + + + + + + o + o + o o + + o + + + + o + + + + + + + + o + + + + + + + + + + o o + + + + + 5                                                                                                                                                                                                                                                                                       ",
"                                                                                                                                                              X + + o + X + o + o + + + o + + + + + + + + o + + + + o + o + + o + + o o + o o o + + o + o o + + + + + + + + + w                                                                                                                                                                                                                                                                                             ",
"                                                                                                                                                                    s X o o + X X + + + + o + o o + + + o + + + + + + + + + o + + o o + o + + + o + + + + X + o o + o &                                                                                                                                                                                                                                                                                                     ",
"                                                                                                                                                                            $.X + o + + + + + + o X + o + o + + X + + o + + + + o o o + o + + + + + + + + + + s                                                                                                                                                                                                                                                                                                             ",
"                                                                                                                                                                                        6 o o + + o + + o X + o + + + o + + + X X o X o + + + + + & O.                                                                                                                                                                                                                                                                                                                      ",
"                                                                                                                                                                                                      @.O.@.O.s + o o o + . r S O.@.|                                                                                                                                                                                                                                                                                                                                       ",
"                                                                                                                                                                                                                                                                                                                                                                                                                                                                                                                                                                            ",
"                                                                                                                                                                                                                                                                                                                                                                                                                                                                                                                                                                            ",
"                                                                                                                                                                                                                                                                                                                                                                                                                                                                                                                                                                            ",
"                                                                                                                                                                                                                                                                                                                                                                                                                                                                                                                                                                            ",
"                                                                                                                                                                                                                                                                                                                                                                                                                                                                                                                                                                            ",
"                                                                                                                                                                                                                                                                                                                                                                                                                                                                                                                                                                            ",
"                                                                                                                                                                                                                                                                                                                                                                                                                                                                                                                                                                            ",
"                                                                                                                                                                                                                                                                                                                                                                                                                                                                                                                                                                            ",
"                                                                                                                                                                                                                                                                                                                                                                                                                                                                                                                                                                            ",
"                                                                                                                                                                                                                                                                                                                                                                                                                                                                                                                                                                            ",
"                                                                                                                                                                                                                                                                                                                                                                                                                                                                                                                                                                            ",
"                                                                                                                                                                                                                                                                                                                                                                                                                                                                                                                                                                            ",
"                                                                                                                                                                                                                                                                                                                                                                                                                                                                                                                                                                            ",
"                                                                                                                                                                                                                                                                                                                                                                                                                                                                                                                                                                            ",
"                                                                                                                                                                                                                                                                                                                                                                                                                                                                                                                                                                            ",
"                                                                                                                                                                                                                                                                                                                                                                                                                                                                                                                                                                            ",
"                                                                                                                                                                                                                                                                                                                                                                                                                                                                                                                                                                            ",
"                                                                                                                                                                                                                                                                                                                                                                                                                                                                                                                                                                            ",
"                                                                                                                                                                                                                                                                                                                                                                                                                                                                                                                                                                            ",
"                                                                                                            + X +                                             + + + $           ; X + X o o + X + + + + + + + + o + o + + + + o # 5 `                                   D , 5 $ + o o o ;                                                   ` < , + + + o o =                                                     S 4 + o + o + + + ;                                                                                                                                       ",
"                                                                                                          8 o + + 8                                       @ + + o o o 7         o + + + + + + o o + + + + o + + + + + + o + + + + X + + . $                       + o + + o + . X o + + +                                           #.+ X + o + o + + o + + + ]                                             @ + + X X o + + + + + + o                                                                                                                                       ",
"                                                                                                          w o + o q                                   & o X + o X + X           o + + + + + + + + + + + + o + + + + + + + + o + + o + o X o + ;               & o + + . + + + + o + o + +                                         % o o + o + + o + o + + o + ]                                         + o + + + o + + + + + + o + o                                                                                                                                       ",
"                                                                                                          e X . + r                               , o o + o + + X ;             o o + + o + . + + + + + + + + + + + o o + + + + o + X o o + X + +           @ + o o + + + o + + o + + o ;                                       @ o + + . + + + X + + + o + ;                                         o X o + + + + o o + + + + + + 4                                                                                                                                       ",
"                                                                                                          q o + X e                           : + + o + + o o %                 + + + +                                                 + o + + o q         + o + o + 6                                                         o + + X + 5                                                         + + o o o ;                                                                                                                                                             ",
"                                                                                                          q + + o q                       i X + + + + o + +                     o + + +                                                   5 + + + +       5 + + o +                                                           5 + + o +                                                             o X + +                                                                                                                                                                 ",
"                                                                                                          q + o + q                   @.o + + + o + + +                         + + o +                                                     X + + +       ; o + o 8                                                           ; + + + q                                                           q + + o &                                                                                                                                                                 ",
"                                                                                                          r + o + r               =.+ o o + o + X +                             + + X +                                                     + + o o       : + + + 8                                                           : o + + r                                                           q + + + ;                                                                                                                                                                 ",
"                                                                                                          q + + o r             + + o + + + o +                                 + + + o                                                     o + + o       ; o + o 8                                                           ; + X + r                                                           q + + o ;                                                                                                                                                                 ",
"                                                                                                          q + + + q         $ + o + + + + +                                     + + o +                                                     o X + o       ; + o o %                                                           ; + o + %                                                           e + + o ;                                                                                                                                                                 ",
"                                                                                                          q + o + u     ; + + X + o o +                                         + + o +                                                     + + o +       9 o + + X +                                                         r o + + + +                                                         w + + o ;                                     . . o o + o o o o o X X o o + o                                                                                             ",
"                                                                                                          r o + o + $ + X + o + + + =.                                          + + + +                                                   s + + + o         + o + o o o + + + + + X + + + + + + + + + 5 r                       o + + o + + + + o + + + + + + o + + + + + 5 S                     q + + o ;                                   X o . o o o o + + + + + + + + + +                                                                                             ",
"                                                                                                          r o + + + + o o o + X +.                                              + + + +                                                 : o X o o 5           + + o X + o + + + + o + + + + + + + + + + o X o +                   X o + o + + + X + o + o o + + o + + + o + + + + +               e + + o ;                                   X o X + o o o o + o o o + o o + o                                                                                             ",
"                                                                                                          q + + + + o + + + e                                                   + + + + o + X + + + + + + + + + + + + o + o + o + + + + o o + + +               + + + o o + + X X + + + + + + + + + + o + + + + + +                 $ o + + + o + + + + + + + o + + + + + o o + + o + +           r + + o ;                                     o o + o + o   : + o + %                                                                                                     ",
"                                                                                                          q o + + + o + + + + ~                                                 + + o + o + + X + o X + o X o o + + + + o + + + + o o + o + + +                     a @ o + o + + + + + + o + + o + + X + + o + X + + +.                S @ + o + + + + + + + + o + + + X + o + + + X + +         9 + + + ;                                                   9 + + o ;                                                                                                     ",
"                                                                                                          : + + + + + + o + . + $ V                                             + + o X + + + + + o + + o + + + o + . + + + + X + o X + X + ]                                                           C @ o + + + + X                                                     D @ + + o + + o       < + + + &                                                   < o + + &                                                                                                     ",
"                                                                                                          9 o + + ; } + + + X + + + +                                           + + + + o o + o + + + o + + + o + + + + + + o + + , r                                                                         5 o + + o !                                                         5 + + + o (     9 + + o ;                                                   9 + + + ;                                                                                                     ",
"                                                                                                          q + + + e       + X o o o + o o                                       o + + + X + o X + o + + X + ;                                                                                                   @ o + o >                                                           @ + o + :     q o + + ;                                                   q + + + :                                                                                                     ",
"                                                                                                          q o + + q         +.+ X + o X + o +                                   o + + +       $ o + + + + o + + +                                                                                               8 X + + :                                                           q + + o ;     r + + + ;                                                   q + + + :                                                                                                     ",
"                                                                                                          q + + o r             S o o + + + o + +                               + o o o           & + o X + o + + + + p                                                                                         0 + + o ;                                                           r X o + ;     e o + o :                                                   q + + + ;                                                                                                     ",
"                                                                                                          q + o + q                 p + + o + + + X $                           o + X +               i + + o + + + + o + &                                                                                     9 o o o :                                                           q X X + ;     e + + + ;                                                   q o + + ;                                                                                                     ",
"                                                                                                          q o o + q                     5 + + + + o o o ;                       o + o +                     + + + + + + + + o o                                                                                 6 + + + ;                                                           8 + + o ;     q + + + &                                                   q + + + :                                                                                                     ",
"                                                                                                          q + + o q                         3 o + + X + X + &                   + o + +                         ; o + + + + o + + o q                                                                           + + + o 9                                                           o + o + q       + X + o                                                   + + + + q                                                                                                     ",
"                                                                                                          w + + . e                             & + o + + . + o 5               X + + +                             p o + + o o o + + o %                                                                   5 + + + + o                                                         5 + + + + o         + + o . + ,                                           ; o + o o X                                                                                                       ",
"                                                                                                          q X o + w                                 % + + + + + o + ,           + o + o                                   $ o o + + + o + + + *.            + + o + + + + + + + + + + + + + + + + + o + + + + + o + X o         + + + + o + + + + + + + o + + + + + o + + + + + o o + . + +           + o + + + + + + + + + + + o + + + o + + + o + o + X + o + + + 5                                                                                                       ",
"                                                                                                          r + + + q                                     + + o + + o + X         + + + +                                       & o o o X o X X + 6         : + + + + + + + + + + + + + + + + + + + + + o + + + . o + +         : + + + + + + + + + + + + + + + + + + + + o + o + X o + + +               + o + o o + + + + + + + + + + + + + + + + + X + o o X + o 6                                                                                                         ",
"                                                                                                          r + o + r                                         $ + + + + +         o + + +                                           S + + o + o + @         : + + o + + + + + + + + + + + + + + + + + . + + + + + + _           ; o + + + + + + + + + + + + + + + + + + + + + + + o X + S                   =.+ + + + o + + + + o + + + + + + + + + + o + o + o ;                                                                                                             ",
"                                                                                                            + + $                                             =.+ + + 6         ; + + p                                                 + + o 4             + + o + + + + + + + + + + + + + + + + + + ; 8 t                     + + + + o + + + + + + + o + + + + + X o o ; q +.                                  S 4 o + + o + + + + + o + + + o + + 5 =.                                                                                                                  ",
"                                                                                                                                                                                                                                                                                                                                                                                                                                                                                                                                                                            ",
"                                                                                                                                                                                                                                                                                                                                                                                                                                                                                                                                                                            ",
"                                                                                                                                                                                                                                                                                                                                                                                                                                                                                                                                                                            ",
"                                                                                                                                                                                                                                                                                                                                                                                                                                                                                                                                                                            ",
"                                                                                                                                                                                                                                                                                                                                                                                                                                                                                                                                                                            ",
"                                                                                                                                                                                                                                                                                                                                                                                                                                                                                                                                                                            ",
"                                                                                                                                                                                                                                                                                                                                                                                                                                                                                                                                                                            ",
"                                                                                                                                                                                                                                                                                                                                                                                                                                                                                                                                                                            ",
"                                                                                                                                                                                                                                                                                                                                                                                                                                                                                                                                                                            ",
"                                                                                                                                                                                                                                                                                                                                                                                                                                                                                                                                                                            ",
"                                                                                                                                                                                                                                                                                                                                                                                                                                                                                                                                                                            "
};
